; generated by PrusaSlicer 2.9.1 on 2025-05-11 at 08:05:59 UTC

; 

; external perimeters extrusion width = 0.42mm
; perimeters extrusion width = 0.44mm
; infill extrusion width = 0.44mm
; solid infill extrusion width = 0.44mm
; top infill extrusion width = 0.40mm
; first layer extrusion width = 0.42mm

; external perimeters extrusion width = 0.42mm
; perimeters extrusion width = 0.44mm
; infill extrusion width = 0.44mm
; solid infill extrusion width = 0.44mm
; top infill extrusion width = 0.40mm
; first layer extrusion width = 0.42mm

; external perimeters extrusion width = 0.42mm
; perimeters extrusion width = 0.44mm
; infill extrusion width = 0.44mm
; solid infill extrusion width = 0.44mm
; top infill extrusion width = 0.40mm
; first layer extrusion width = 0.42mm

; external perimeters extrusion width = 0.42mm
; perimeters extrusion width = 0.44mm
; infill extrusion width = 0.44mm
; solid infill extrusion width = 0.44mm
; top infill extrusion width = 0.40mm
; first layer extrusion width = 0.42mm

M201 X500 Y500 Z100 E5000 ; sets maximum accelerations, mm/sec^2
M203 X500 Y500 Z10 E60 ; sets maximum feedrates, mm / sec
M204 S500 T1000 ; sets acceleration (S) and retract acceleration (R), mm/sec^2
M205 X8.00 Y8.00 Z0.40 E5.00 ; sets the jerk limits, mm/sec
M205 S0 T0 ; sets the minimum extruding and travel feed rate, mm/sec

; printing object Clip_small.stl id:0 copy 0
; stop printing object Clip_small.stl id:0 copy 0
; printing object Clip_big.stl id:1 copy 0
; stop printing object Clip_big.stl id:1 copy 0
; printing object Clip_small.stl id:3 copy 0
; stop printing object Clip_small.stl id:3 copy 0
; printing object Clip_small.stl id:2 copy 0
; stop printing object Clip_small.stl id:2 copy 0

;TYPE:Custom
G90 ; use absolute coordinates
M83 ; extruder relative mode
M104 S150 ; set temporary nozzle temp to prevent oozing during homing
M140 S60 ; set final bed temp
G4 S30 ; allow partial nozzle warmup
G28 ; home all axis
G1 Z50 F240
G1 X2.0 Y10 F3000
M104 S210 ; set final nozzle temp
M190 S60 ; wait for bed temp to stabilize
M109 S210 ; wait for nozzle temp to stabilize
G1 Z0.28 F240
G92 E0
G1 X2.0 Y140 E10 F1500 ; prime the nozzle
G1 X2.3 Y140 F5000
G92 E0
G1 X2.3 Y10 E10 F1200 ; prime the nozzle
G92 E0
G21 ; set units to millimeters
G90 ; use absolute coordinates
M83 ; use relative distances for extrusion
; Filament gcode
M107
;LAYER_CHANGE
;Z:0.2
;HEIGHT:0.2
G1 E-5 F3600
G1 Z.2 F9000
G1 X98.611 Y74.809
G1 Z.2
G1 E5 F2400
M204 S500
;TYPE:Skirt/Brim
;WIDTH:0.42
G1 F1200
G1 X99.515 Y73.709 E.04464
G1 X100.323 Y72.907 E.0357
G1 X101.896 Y71.689 E.06238
G1 X102.875 Y71.109 E.03568
G1 X104.132 Y70.523 E.04348
G1 X130.743 Y60.623 E.89024
G1 X131.953 Y60.267 E.03955
G1 X133.76 Y59.965 E.05744
G1 X134.939 Y59.909 E.03701
G1 X165.071 Y59.911 E.94477
G1 X167.157 Y60.106 E.06569
G1 X169.183 Y60.641 E.0657
G1 X171.113 Y61.515 E.06643
G1 X172.627 Y62.505 E.05672
G1 X173.434 Y63.175 E.03289
G1 X174.183 Y63.908 E.03286
G1 X175.031 Y64.909 E.04113
G1 X176.159 Y66.675 E.0657
G1 X176.609 Y67.622 E.03287
G1 X177.204 Y69.355 E.05745
G1 X177.571 Y71.418 E.0657
G1 X177.626 Y72.711 E.04058
G1 X175.653 Y127.692 E1.725
G1 X175.33 Y129.762 E.06569
G1 X174.67 Y131.751 E.06571
G1 X173.692 Y133.604 E.0657
G1 X172.422 Y135.271 E.06571
G1 X170.895 Y136.706 E.0657
G1 X170.048 Y137.324 E.03287
G1 X168.921 Y137.995 E.04113
G1 X167.975 Y138.446 E.03286
G1 X166.241 Y139.041 E.05748
G1 X164.178 Y139.407 E.06569
G1 X163 Y139.464 E.03698
G1 X132.083 Y139.429 E.96938
G1 X130.867 Y139.284 E.0384
G1 X105.121 Y134.587 E.82057
G1 X103.239 Y133.944 E.06236
G1 X102.215 Y133.447 E.03569
G1 X101.003 Y132.699 E.04466
G1 X99.466 Y131.436 E.06237
G1 X98.682 Y130.611 E.03568
G1 X97.976 Y129.718 E.03569
G1 X97.352 Y128.766 E.03569
G1 X96.695 Y127.502 E.04467
G1 X96.275 Y126.444 E.03569
G1 X95.774 Y124.519 E.06237
G1 X95.625 Y123.391 E.03567
G1 X95.577 Y122.11 E.04019
G1 X96.218 Y81.121 E1.28534
G1 X96.374 Y79.993 E.0357
G1 X96.631 Y78.884 E.03569
G1 X96.987 Y77.803 E.03568
G1 X97.438 Y76.758 E.03569
G1 X97.98 Y75.757 E.03569
G1 X98.578 Y74.859 E.03383
G1 E-3.5 F3600
;WIPE_START
G1 F7200
G1 X98.611 Y74.809 E-.02846
G1 X99.515 Y73.709 E-.67631
G1 X100.323 Y72.907 E-.54076
G1 X100.747 Y72.579 E-.25447
;WIPE_END
; printing object Clip_big.stl id:1 copy 0
G1 X100.498 Y92.765 F9000
G1 E5 F2400
;TYPE:Perimeter
;WIDTH:0.542591
G1 F1200
G1 X100.502 Y92.814 E.00204
;WIDTH:0.541544
G1 X100.638 Y93.386 E.02438
;WIDTH:0.543735
G1 X100.861 Y93.93 E.02448
G1 X101.169 Y94.431 E.02449
;WIDTH:0.541048
G1 X101.55 Y94.878 E.02433
;WIDTH:0.545132
G1 X102.019 Y95.277 E.02571
G1 X102.497 Y95.569 E.02339
;WIDTH:0.541652
G1 X103.04 Y95.794 E.02437
;WIDTH:0.542398
G1 X103.611 Y95.933 E.02441
;WIDTH:0.544042
G1 X104.167 Y95.982 E.02326
G1 X105.214 Y96.004 E.04364
;WIDTH:0.527223
G1 X105.365 Y96.124 E.00777
G1 X105.388 Y96.317 E.00783
G1 X105.279 Y96.46 E.00724
;WIDTH:0.532458
G1 X105.083 Y96.479 E.00802
;WIDTH:0.543321
G1 X104.121 Y96.481 E.04003
;WIDTH:0.546302
G1 X103.614 Y96.44 E.02129
;WIDTH:0.548051
G1 X103.112 Y96.337 E.02152
G1 X102.625 Y96.176 E.02154
;WIDTH:0.547179
G1 X102.161 Y95.959 E.02148
;WIDTH:0.545132
G1 X101.727 Y95.685 E.02143
;WIDTH:0.547762
G1 X101.33 Y95.36 E.02154
G1 X100.974 Y94.991 E.02152
G1 X100.664 Y94.582 E.02154
;WIDTH:0.545139
G1 X100.406 Y94.139 E.02141
;WIDTH:0.547174
G1 X100.205 Y93.667 E.02151
;WIDTH:0.548051
G1 X100.062 Y93.174 E.02156
G1 X99.978 Y92.668 E.02154
;WIDTH:0.546307
G1 X99.953 Y92.148 E.02179
;WIDTH:0.544381
G1 X100.103 Y82.114 E.41843
;WIDTH:0.543373
G1 X100.168 Y81.236 E.03664
;WIDTH:0.541697
G1 X100.321 Y80.366 E.03664
;WIDTH:0.540601
G1 X100.532 Y79.601 E.03284
;WIDTH:0.548576
G1 X100.709 Y79.097 E.02246
G1 X101.029 Y78.38 E.03301
G1 X101.412 Y77.695 E.033
;WIDTH:0.547935
G1 X101.854 Y77.046 E.03297
;WIDTH:0.547251
G1 X102.353 Y76.44 E.03292
;WIDTH:0.544943
G1 X102.956 Y75.836 E.03563
;WIDTH:0.542896
G1 X103.639 Y75.276 E.03672
;WIDTH:0.541371
G1 X104.375 Y74.788 E.0366
;WIDTH:0.540416
G1 X105.075 Y74.413 E.03285
;WIDTH:0.548683
G1 X105.54 Y74.203 E.02146
G1 X106.279 Y73.939 E.033
;WIDTH:0.548471
G1 X107.038 Y73.742 E.03296
;WIDTH:0.547689
G1 X107.813 Y73.613 E.03298
;WIDTH:0.546327
G1 X108.599 Y73.554 E.03299
;WIDTH:0.544412
G1 X109.474 Y73.576 E.0365
;WIDTH:0.542459
G1 X110.35 Y73.685 E.03667
;WIDTH:0.541078
G1 X111.182 Y73.873 E.03533
;WIDTH:0.548469
G1 X111.684 Y74.025 E.02205
;WIDTH:0.548682
G1 X112.415 Y74.313 E.03304
G1 X113.116 Y74.664 E.03297
;WIDTH:0.548328
G1 X113.784 Y75.077 E.033
;WIDTH:0.547403
G1 X114.412 Y75.548 E.03293
;WIDTH:0.545906
G1 X115.009 Y76.088 E.03367
;WIDTH:0.543869
G1 X115.602 Y76.742 E.03677
;WIDTH:0.542061
G1 X116.127 Y77.452 E.03665
;WIDTH:0.540821
G1 X116.562 Y78.182 E.03518
;WIDTH:0.548648
G1 X116.79 Y78.631 E.02118
G1 X117.086 Y79.357 E.03297
G1 X117.317 Y80.108 E.03304
;WIDTH:0.548148
G1 X117.48 Y80.875 E.03294
;WIDTH:0.547083
G1 X117.574 Y81.655 E.03294
;WIDTH:0.545443
G1 X117.599 Y82.445 E.03303
;WIDTH:0.54438
G1 X117.01 Y122.483 E1.66963
;WIDTH:0.543373
G1 X116.945 Y123.36 E.03659
;WIDTH:0.541697
G1 X116.791 Y124.23 E.03664
;WIDTH:0.540602
G1 X116.581 Y124.996 E.03287
;WIDTH:0.548573
G1 X116.403 Y125.5 E.02247
G1 X116.083 Y126.216 E.03297
G1 X115.701 Y126.902 E.03301
;WIDTH:0.547934
G1 X115.259 Y127.55 E.03294
;WIDTH:0.546727
G1 X114.76 Y128.157 E.03292
;WIDTH:0.544944
G1 X114.157 Y128.761 E.03563
;WIDTH:0.542893
G1 X113.474 Y129.32 E.03669
;WIDTH:0.541371
G1 X112.738 Y129.808 E.0366
;WIDTH:0.540417
G1 X112.038 Y130.183 E.03285
;WIDTH:0.548683
G1 X111.573 Y130.393 E.02146
G1 X110.834 Y130.657 E.033
;WIDTH:0.548469
G1 X110.074 Y130.854 E.033
;WIDTH:0.547685
G1 X109.3 Y130.983 E.03293
;WIDTH:0.546333
G1 X108.517 Y131.042 E.03287
;WIDTH:0.544411
G1 X107.653 Y131.022 E.03604
;WIDTH:0.543021
G1 X106.763 Y130.911 E.0373
;WIDTH:0.541079
G1 X105.931 Y130.723 E.03533
;WIDTH:0.548469
G1 X105.429 Y130.571 E.02205
;WIDTH:0.548683
G1 X104.698 Y130.284 E.03303
G1 X103.997 Y129.932 E.03299
;WIDTH:0.548329
G1 X103.329 Y129.519 E.033
;WIDTH:0.547403
G1 X102.701 Y129.048 E.03293
;WIDTH:0.545909
G1 X102.104 Y128.509 E.03364
;WIDTH:0.54387
G1 X101.511 Y127.854 E.0368
;WIDTH:0.542061
G1 X100.986 Y127.144 E.03665
;WIDTH:0.540822
G1 X100.55 Y126.414 E.0352
;WIDTH:0.548648
G1 X100.323 Y125.965 E.02116
G1 X100.026 Y125.239 E.03299
G1 X99.796 Y124.489 E.03299
;WIDTH:0.54815
G1 X99.633 Y123.721 E.03298
;WIDTH:0.547082
G1 X99.539 Y122.941 E.03294
;WIDTH:0.545445
G1 X99.514 Y122.151 E.03303
;WIDTH:0.544379
G1 X99.663 Y112.149 E.41709
;WIDTH:0.546309
G1 X99.704 Y111.643 E.02125
;WIDTH:0.548052
G1 X99.807 Y111.14 E.02157
G1 X99.968 Y110.653 E.02154
;WIDTH:0.547174
G1 X100.185 Y110.189 E.02148
;WIDTH:0.545141
G1 X100.459 Y109.755 E.02143
;WIDTH:0.547758
G1 X100.784 Y109.358 E.02154
G1 X101.153 Y109.002 E.02152
G1 X101.561 Y108.692 E.02151
;WIDTH:0.545132
G1 X102.005 Y108.434 E.02144
;WIDTH:0.547179
G1 X102.477 Y108.233 E.02151
;WIDTH:0.548051
G1 X102.97 Y108.09 E.02156
G1 X103.475 Y108.006 E.0215
;WIDTH:0.546302
G1 X104.003 Y107.981 E.02212
;WIDTH:0.544379
G1 X105.036 Y108.011 E.04309
G1 X105.182 Y108.127 E.00778
G1 X105.204 Y108.313 E.00781
G1 X105.114 Y108.441 E.00652
G1 X104.9 Y108.496 E.00921
G1 X103.911 Y108.484 E.04124
;WIDTH:0.542594
G1 X103.33 Y108.53 E.02421
;WIDTH:0.541543
G1 X102.758 Y108.666 E.02438
;WIDTH:0.543741
G1 X102.214 Y108.889 E.02448
G1 X101.713 Y109.197 E.02449
;WIDTH:0.541048
G1 X101.266 Y109.578 E.02433
;WIDTH:0.545141
G1 X100.866 Y110.047 E.02574
G1 X100.575 Y110.525 E.02337
;WIDTH:0.541655
G1 X100.35 Y111.068 E.02437
;WIDTH:0.542395
G1 X100.211 Y111.639 E.02441
;WIDTH:0.544381
G1 X100.161 Y112.207 E.02378
G1 X100.016 Y122.21 E.41714
;WIDTH:0.543375
G1 X100.05 Y123.042 E.03465
;WIDTH:0.541698
G1 X100.168 Y123.869 E.03465
;WIDTH:0.54815
G1 X100.288 Y124.376 E.02189
;WIDTH:0.548575
G1 X100.506 Y125.08 E.03099
G1 X100.786 Y125.761 E.03096
G1 X101.124 Y126.416 E.03099
;WIDTH:0.547937
G1 X101.519 Y127.038 E.03094
;WIDTH:0.546727
G1 X101.967 Y127.623 E.03087
;WIDTH:0.544945
G1 X102.517 Y128.212 E.03364
;WIDTH:0.542896
G1 X103.146 Y128.763 E.03476
;WIDTH:0.541371
G1 X103.809 Y129.237 E.03378
;WIDTH:0.548329
G1 X104.255 Y129.498 E.02172
;WIDTH:0.548683
G1 X104.914 Y129.826 E.03096
G1 X105.6 Y130.096 E.031
;WIDTH:0.548469
G1 X106.307 Y130.304 E.03098
;WIDTH:0.547688
G1 X107.029 Y130.448 E.0309
;WIDTH:0.546416
G1 X107.77 Y130.529 E.03121
;WIDTH:0.544409
G1 X108.593 Y130.537 E.03432
;WIDTH:0.542459
G1 X109.425 Y130.461 E.0347
;WIDTH:0.541078
G1 X110.183 Y130.316 E.03197
;WIDTH:0.548469
G1 X110.698 Y130.17 E.0225
;WIDTH:0.548683
G1 X111.392 Y129.921 E.03101
G1 X112.06 Y129.612 E.03095
;WIDTH:0.548327
G1 X112.699 Y129.245 E.03097
;WIDTH:0.547401
G1 X113.303 Y128.823 E.03091
;WIDTH:0.545904
G1 X113.882 Y128.335 E.03167
;WIDTH:0.543867
G1 X114.463 Y127.735 E.03479
;WIDTH:0.54206
G1 X114.981 Y127.08 E.03466
;WIDTH:0.540822
G1 X115.399 Y126.431 E.03196
;WIDTH:0.548646
G1 X115.637 Y125.979 E.02148
G1 X115.937 Y125.306 E.03098
G1 X116.175 Y124.609 E.03097
;WIDTH:0.548149
G1 X116.352 Y123.893 E.03098
;WIDTH:0.547082
G1 X116.465 Y123.165 E.03088
;WIDTH:0.545441
G1 X116.513 Y122.394 E.03228
;WIDTH:0.54438
G1 X117.097 Y82.386 E1.66837
;WIDTH:0.543373
G1 X117.063 Y81.554 E.03465
;WIDTH:0.541697
G1 X116.944 Y80.727 E.03465
;WIDTH:0.548148
G1 X116.825 Y80.22 E.02188
;WIDTH:0.548575
G1 X116.606 Y79.516 E.031
G1 X116.327 Y78.835 E.03094
G1 X115.989 Y78.18 E.03099
;WIDTH:0.547935
G1 X115.594 Y77.558 E.03094
;WIDTH:0.546723
G1 X115.146 Y76.973 E.03087
;WIDTH:0.544944
G1 X114.596 Y76.384 E.03364
;WIDTH:0.542895
G1 X113.967 Y75.833 E.03476
;WIDTH:0.541371
G1 X113.303 Y75.359 E.03381
;WIDTH:0.548328
G1 X112.858 Y75.098 E.02168
;WIDTH:0.548682
G1 X112.198 Y74.77 E.03099
G1 X111.513 Y74.5 E.03096
;WIDTH:0.548469
G1 X110.806 Y74.293 E.03097
;WIDTH:0.547687
G1 X110.084 Y74.148 E.03091
;WIDTH:0.546332
G1 X109.351 Y74.067 E.03087
;WIDTH:0.544409
G1 X108.52 Y74.059 E.03465
;WIDTH:0.54231
G1 X107.688 Y74.135 E.03469
;WIDTH:0.541079
G1 X106.93 Y74.28 E.03197
;WIDTH:0.548471
G1 X106.415 Y74.426 E.0225
;WIDTH:0.548683
G1 X105.721 Y74.675 E.03101
G1 X105.053 Y74.984 E.03095
;WIDTH:0.548327
G1 X104.414 Y75.351 E.03097
;WIDTH:0.547401
G1 X103.81 Y75.773 E.03091
;WIDTH:0.545907
G1 X103.231 Y76.261 E.03167
;WIDTH:0.54387
G1 X102.649 Y76.862 E.03485
;WIDTH:0.54207
G1 X102.124 Y77.527 E.03517
;WIDTH:0.540987
G1 X101.714 Y78.165 E.03141
;WIDTH:0.548648
G1 X101.476 Y78.618 E.02152
G1 X101.176 Y79.291 E.03099
G1 X100.937 Y79.987 E.03095
;WIDTH:0.548149
G1 X100.761 Y80.703 E.03097
;WIDTH:0.547082
G1 X100.648 Y81.431 E.03088
;WIDTH:0.545443
G1 X100.6 Y82.202 E.03228
;WIDTH:0.54438
G1 X100.456 Y92.232 E.41826
;WIDTH:0.542591
G1 X100.494 Y92.705 E.01972
G1 X100.928 Y92.703 F9000
;TYPE:External perimeter
;WIDTH:0.419999
G1 F1200
G1 X100.929 Y92.718 E.00047
G1 X101.045 Y93.224 E.01628
G1 X101.239 Y93.706 E.01629
G1 X101.506 Y94.151 E.01627
G1 X101.839 Y94.55 E.01629
G1 X102.231 Y94.891 E.01629
G1 X102.671 Y95.167 E.01629
G1 X103.148 Y95.371 E.01627
G1 X103.652 Y95.497 E.01629
G1 X104.174 Y95.543 E.01643
G1 X105.332 Y95.586 E.03633
G1 X105.638 Y95.769 E.01118
G1 X105.811 Y96.079 E.01113
G1 X105.806 Y96.435 E.01116
G1 X105.623 Y96.741 E.01118
G1 X105.322 Y96.91 E.01082
G1 X104.142 Y96.923 E.037
G1 X103.57 Y96.88 E.01799
G1 X103.014 Y96.77 E.01777
G1 X102.476 Y96.593 E.01776
G1 X101.963 Y96.353 E.01776
G1 X101.483 Y96.053 E.01775
G1 X101.042 Y95.697 E.01777
G1 X100.648 Y95.291 E.01774
G1 X100.305 Y94.84 E.01777
G1 X100.019 Y94.351 E.01776
G1 X99.795 Y93.832 E.01772
G1 X99.634 Y93.289 E.01776
G1 X99.54 Y92.73 E.01777
G1 X99.514 Y92.155 E.01805
G1 X99.66 Y82.188 E.31254
G1 X99.735 Y81.171 E.03197
G1 X99.896 Y80.263 E.02891
G1 X100.135 Y79.409 E.02781
G1 X100.306 Y78.917 E.01633
G1 X100.644 Y78.165 E.02585
G1 X101.047 Y77.446 E.02584
G1 X101.514 Y76.766 E.02586
G1 X102.039 Y76.131 E.02583
G1 X102.672 Y75.501 E.028
G1 X103.387 Y74.918 E.02893
G1 X104.156 Y74.409 E.02891
G1 X104.891 Y74.016 E.02613
G1 X105.391 Y73.788 E.01723
G1 X106.168 Y73.512 E.02585
G1 X106.966 Y73.307 E.02583
G1 X107.78 Y73.174 E.02586
G1 X108.606 Y73.115 E.02596
G1 X109.519 Y73.14 E.02864
G1 X110.434 Y73.256 E.02892
G1 X111.333 Y73.462 E.02892
G1 X112.125 Y73.724 E.02616
G1 X112.612 Y73.918 E.01644
G1 X113.348 Y74.289 E.02584
G1 X114.048 Y74.724 E.02584
G1 X114.706 Y75.221 E.02585
G1 X115.331 Y75.789 E.02648
G1 X115.948 Y76.474 E.02891
G1 X116.495 Y77.217 E.02893
G1 X116.965 Y78.01 E.0289
G1 X117.198 Y78.463 E.01597
G1 X117.508 Y79.227 E.02585
G1 X117.749 Y80.016 E.02587
G1 X117.918 Y80.823 E.02585
G1 X118.014 Y81.641 E.02582
G1 X118.038 Y82.442 E.02513
G1 X117.453 Y122.423 E1.25371
G1 X117.403 Y123.254 E.0261
G1 X117.281 Y124.069 E.02584
G1 X117.086 Y124.87 E.02585
G1 X116.819 Y125.651 E.02588
G1 X116.484 Y126.404 E.02584
G1 X116.083 Y127.124 E.02584
G1 X115.619 Y127.806 E.02586
G1 X115.095 Y128.443 E.02586
G1 X114.517 Y129.03 E.02583
G1 X113.888 Y129.564 E.02587
G1 X113.214 Y130.039 E.02585
G1 X112.5 Y130.451 E.02585
G1 X111.752 Y130.798 E.02585
G1 X110.975 Y131.076 E.02587
G1 X110.177 Y131.284 E.02586
G1 X109.364 Y131.42 E.02585
G1 X108.542 Y131.481 E.02584
G1 X107.717 Y131.469 E.02587
G1 X106.897 Y131.383 E.02585
G1 X106.088 Y131.224 E.02585
G1 X105.296 Y130.993 E.02587
G1 X104.529 Y130.692 E.02583
G1 X103.791 Y130.324 E.02586
G1 X103.09 Y129.891 E.02583
G1 X102.43 Y129.396 E.02587
G1 X101.817 Y128.845 E.02584
G1 X101.256 Y128.24 E.02587
G1 X100.751 Y127.588 E.02586
G1 X100.307 Y126.893 E.02586
G1 X99.927 Y126.162 E.02583
G1 X99.614 Y125.399 E.02586
G1 X99.371 Y124.611 E.02586
G1 X99.199 Y123.804 E.02587
G1 X99.1 Y122.986 E.02583
G1 X99.075 Y122.155 E.02607
G1 X99.221 Y112.193 E.31238
G1 X99.272 Y111.557 E.02001
G1 X99.387 Y111.003 E.01774
G1 X99.568 Y110.467 E.01774
G1 X99.824 Y109.939 E.0184
G1 X100.134 Y109.457 E.01797
G1 X100.476 Y109.041 E.01689
G1 X100.886 Y108.651 E.01774
G1 X101.339 Y108.312 E.01774
G1 X101.831 Y108.031 E.01777
G1 X102.352 Y107.811 E.01773
G1 X102.896 Y107.655 E.01774
G1 X103.455 Y107.566 E.01775
G1 X104.009 Y107.542 E.01739
