; generated by PrusaSlicer 2.9.1 on 2025-05-11 at 08:40:53 UTC

; 

; external perimeters extrusion width = 0.42mm
; perimeters extrusion width = 0.44mm
; infill extrusion width = 0.44mm
; solid infill extrusion width = 0.44mm
; top infill extrusion width = 0.40mm
; first layer extrusion width = 0.42mm

M201 X500 Y500 Z100 E5000 ; sets maximum accelerations, mm/sec^2
M203 X500 Y500 Z10 E60 ; sets maximum feedrates, mm / sec
M204 S500 T1000 ; sets acceleration (S) and retract acceleration (R), mm/sec^2
M205 X8.00 Y8.00 Z0.40 E5.00 ; sets the jerk limits, mm/sec
M205 S0 T0 ; sets the minimum extruding and travel feed rate, mm/sec

; printing object extruderrad-v4.stl id:0 copy 0
; stop printing object extruderrad-v4.stl id:0 copy 0

;TYPE:Custom
G90 ; use absolute coordinates
M83 ; extruder relative mode
M104 S150 ; set temporary nozzle temp to prevent oozing during homing
M140 S60 ; set final bed temp
G4 S30 ; allow partial nozzle warmup
G28 ; home all axis
G1 Z50 F240
G1 X2.0 Y10 F3000
M104 S210 ; set final nozzle temp
M190 S60 ; wait for bed temp to stabilize
M109 S210 ; wait for nozzle temp to stabilize
G1 Z0.28 F240
G92 E0
G1 X2.0 Y140 E10 F1500 ; prime the nozzle
G1 X2.3 Y140 F5000
G92 E0
G1 X2.3 Y10 E10 F1200 ; prime the nozzle
G92 E0
G21 ; set units to millimeters
G90 ; use absolute coordinates
M83 ; use relative distances for extrusion
; Filament gcode
M107
;LAYER_CHANGE
;Z:0.2
;HEIGHT:0.2
G1 E-5 F3600
G1 Z.2 F9000
G1 X94.014 Y97.282
G1 Z.2
G1 E5 F2400
M204 S500
;TYPE:Skirt/Brim
;WIDTH:0.42
G1 F1200
G1 X94.606 Y96.784 E.02426
G1 X101.268 Y92.332 E.25123
G1 X102.812 Y91.453 E.05571
G1 X104.239 Y90.752 E.04985
G1 X107.027 Y89.665 E.09382
G1 X113.279 Y87.54 E.20704
G1 X114.465 Y87.331 E.03776
G1 X116.96 Y87.372 E.07824
G1 X117.712 Y87.54 E.02416
G1 X124.111 Y89.714 E.2119
G1 X127.131 Y90.928 E.10205
G1 X129.984 Y92.495 E.10206
G1 X136.723 Y97.167 E.25711
G1 X137.304 Y97.675 E.0242
G1 X138.982 Y99.913 E.0877
G1 X139.513 Y101.016 E.03838
G1 X141.877 Y108.929 E.25894
G1 X142.467 Y112.08 E.10051
G1 X142.682 Y115.279 E.10053
G1 X142.539 Y118.293 E.09461
G1 X142.022 Y121.457 E.10052
G1 X139.84 Y129.431 E.25921
G1 X139.338 Y130.537 E.03808
G1 X137.797 Y132.702 E.08332
G1 X137.231 Y133.225 E.02416
G1 X130.892 Y137.908 E.24711
G1 X129.419 Y138.851 E.05484
G1 X126.81 Y140.221 E.0924
G1 X125.197 Y140.897 E.05484
G1 X117.74 Y143.457 E.2472
G1 X116.542 Y143.669 E.03815
G1 X115.129 Y143.686 E.04431
G1 X114.057 Y143.629 E.03366
G1 X113.305 Y143.461 E.02416
G1 X105.779 Y140.892 E.24934
G1 X102.901 Y139.594 E.09899
G1 X101.523 Y138.822 E.04952
G1 X100.04 Y137.867 E.05531
G1 X93.669 Y133.112 E.24926
G1 X93.106 Y132.587 E.02414
G1 X91.497 Y130.286 E.08804
G1 X91.006 Y129.172 E.03817
G1 X88.887 Y121.076 E.2624
G1 X88.429 Y118.055 E.0958
G1 X88.317 Y114.811 E.10177
G1 X88.407 Y113.19 E.0509
G1 X88.621 Y111.389 E.05687
G1 X89.252 Y108.399 E.09581
G1 X89.743 Y106.782 E.05299
G1 X92.029 Y99.977 E.22508
G1 X92.83 Y98.741 E.04618
G1 X93.977 Y97.329 E.05704
G1 E-3.5 F3600
;WIPE_START
G1 F7200
G1 X94.014 Y97.282 E-.02841
G1 X94.606 Y96.784 E-.36746
G1 X96.539 Y95.493 E-1.10413
;WIPE_END
; printing object extruderrad-v4.stl id:0 copy 0
G1 X118.217 Y114.471 F9000
G1 E5 F2400
;TYPE:Perimeter
;WIDTH:0.419999
G1 F1200
G1 X118.347 Y114.241 E.00828
G1 X118.795 Y113.89 E.01784
G1 X124.017 Y110.233 E.19989
G1 X124.208 Y110.13 E.0068
G1 X124.471 Y110.067 E.00848
G1 X124.69 Y110.072 E.00687
G1 X124.946 Y110.147 E.00836
G1 X125.263 Y110.38 E.01234
G1 X125.387 Y110.557 E.00678
G1 X132.066 Y122.911 E.44034
G1 X132.179 Y123.394 E.01555
G1 X132.063 Y123.813 E.01363
G1 X131.864 Y124.064 E.01004
G1 X131.469 Y124.376 E.01578
G1 X131.192 Y124.469 E.00916
G1 X130.947 Y124.478 E.00769
G1 X130.637 Y124.393 E.01008
G1 X130.495 Y124.311 E.00514
G1 X118.571 Y115.954 E.45655
G1 X118.387 Y115.785 E.00783
G1 X118.216 Y115.475 E.0111
G1 X118.126 Y114.893 E.01847
G1 X118.176 Y114.543 E.01109
G1 X118.187 Y114.523 E.00072
G1 X118.558 Y114.621 F9000
G1 F1200
G1 X118.635 Y114.485 E.0049
G1 X119.284 Y114.007 E.02527
G1 X124.233 Y110.542 E.18942
G1 X124.506 Y110.442 E.00912
G1 X124.791 Y110.49 E.00906
G1 X124.981 Y110.63 E.0074
G1 X125.055 Y110.737 E.00408
G1 X131.735 Y123.091 E.44035
G1 X131.802 Y123.38 E.0093
G1 X131.733 Y123.632 E.00819
G1 X131.387 Y123.982 E.01543
G1 X131.13 Y124.097 E.00883
G1 X130.798 Y124.052 E.0105
G1 X130.711 Y124.002 E.00315
G1 X118.787 Y115.645 E.45655
G1 X118.61 Y115.443 E.00842
G1 X118.502 Y114.875 E.01813
G1 X118.531 Y114.674 E.00637
G1 X118.906 Y114.779 F9000
;TYPE:External perimeter
G1 F1200
G1 X118.923 Y114.728 E.00169
G1 X119.501 Y114.316 E.02226
G1 X124.45 Y110.851 E.18942
G1 X124.584 Y110.819 E.00432
G1 X124.724 Y110.916 E.00534
G1 X131.403 Y123.27 E.44034
G1 X131.402 Y123.45 E.00564
G1 X131.1 Y123.716 E.01262
G1 X130.956 Y123.71 E.00452
G1 X130.927 Y123.693 E.00105
G1 X119.003 Y115.337 E.45653
G1 X118.925 Y115.207 E.00475
G1 X118.879 Y114.858 E.01104
G1 X118.887 Y114.835 E.00076
G1 E-3.5 F3600
;WIPE_START
G1 F7200
G1 X118.906 Y114.779 E-.02809
G1 X118.923 Y114.728 E-.02554
G1 X119.501 Y114.316 E-.33716
G1 X121.414 Y112.977 E-1.10921
;WIPE_END
G1 X116.923 Y117.903 F9000
G1 E5 F2400
;TYPE:Perimeter
G1 F1200
G1 X117.237 Y117.774 E.01064
G1 X117.439 Y117.756 E.00636
G1 X117.686 Y117.794 E.00784
G1 X117.961 Y117.927 E.00958
G1 X129.652 Y126.111 E.44745
G1 X129.879 Y126.335 E.01
G1 X130.04 Y126.718 E.01303
G1 X130.038 Y127.06 E.01072
G1 X129.855 Y127.589 E.01755
G1 X129.663 Y127.826 E.00956
G1 X129.383 Y127.998 E.0103
G1 X129.037 Y128.064 E.01104
G1 X117.294 Y128.064 E.36819
G1 X116.842 Y127.949 E.01462
G1 X116.598 Y127.757 E.00973
G1 X116.436 Y127.513 E.00918
G1 X116.351 Y127.12 E.01261
G1 X116.347 Y118.767 E.2619
G1 X116.431 Y118.379 E.01245
G1 X116.587 Y118.139 E.00897
G1 X116.854 Y117.931 E.01061
G1 X116.868 Y117.926 E.00047
G1 X117.1 Y118.244 F9000
G1 F1200
G1 X117.311 Y118.144 E.00732
G1 X117.58 Y118.156 E.00844
G1 X117.745 Y118.236 E.00575
G1 X129.436 Y126.42 E.44745
G1 X129.641 Y126.684 E.01048
G1 X129.674 Y126.944 E.00822
G1 X129.528 Y127.402 E.01507
G1 X129.413 Y127.544 E.00573
G1 X129.134 Y127.678 E.0097
G1 X129.037 Y127.687 E.00305
G1 X117.294 Y127.687 E.36819
G1 X117.023 Y127.618 E.00877
G1 X116.876 Y127.503 E.00585
G1 X116.779 Y127.357 E.0055
G1 X116.728 Y127.12 E.0076
G1 X116.724 Y118.767 E.2619
G1 X116.774 Y118.534 E.00747
G1 X116.951 Y118.314 E.00885
G1 X117.046 Y118.269 E.0033
G1 X117.273 Y118.575 F9000
;TYPE:External perimeter
G1 F1200
G1 X117.424 Y118.51 E.00515
G1 X117.474 Y118.518 E.00159
G1 X129.22 Y126.728 E.44933
G1 X129.3 Y126.874 E.00522
G1 X129.2 Y127.215 E.01114
G1 X129.069 Y127.307 E.00502
G1 X129.037 Y127.31 E.00101
G1 X117.294 Y127.31 E.36819
G1 X117.154 Y127.249 E.00479
G1 X117.105 Y127.12 E.00433
G1 X117.101 Y118.765 E.26196
G1 X117.177 Y118.616 E.00524
G1 X117.218 Y118.599 E.00139
G1 E-3.5 F3600
;WIPE_START
G1 F7200
G1 X117.273 Y118.575 E-.0285
G1 X117.424 Y118.51 E-.07809
G1 X117.474 Y118.518 E-.02405
G1 X119.837 Y120.17 E-1.36936
;WIPE_END
G1 X114.074 Y111.939 F9000
G1 E5 F2400
;TYPE:Perimeter
G1 F1200
G1 X113.91 Y112.025 E.00581
G1 X113.581 Y112.084 E.01048
G1 X113.171 Y111.989 E.0132
G1 X113.031 Y111.906 E.0051
G1 X107.836 Y108.156 E.20089
G1 X107.641 Y107.968 E.00849
G1 X107.486 Y107.668 E.01059
G1 X107.45 Y107.293 E.01181
G1 X107.625 Y106.82 E.01581
G1 X112.628 Y97.566 E.32984
G1 X112.968 Y97.209 E.01546
G1 X113.379 Y97.075 E.01355
G1 X113.689 Y97.1 E.00975
G1 X114.174 Y97.256 E.01597
G1 X114.416 Y97.45 E.00972
G1 X114.575 Y97.693 E.00911
G1 X114.658 Y98.079 E.01238
G1 X114.658 Y111.073 E.40742
G1 X114.556 Y111.5 E.01376
G1 X114.272 Y111.834 E.01375
G1 X114.127 Y111.91 E.00513
G1 X113.9 Y111.599 F9000
G1 F1200
G1 X113.694 Y111.696 E.00714
G1 X113.444 Y111.689 E.00784
G1 X113.252 Y111.6 E.00664
G1 X108.057 Y107.851 E.20087
G1 X107.863 Y107.604 E.00985
G1 X107.825 Y107.333 E.00858
G1 X107.957 Y106.999 E.01126
G1 X112.96 Y97.745 E.32984
G1 X113.164 Y97.531 E.00927
G1 X113.516 Y97.452 E.01131
G1 X113.99 Y97.585 E.01544
G1 X114.136 Y97.702 E.00587
G1 X114.231 Y97.848 E.00546
G1 X114.281 Y98.079 E.00741
G1 X114.281 Y111.073 E.40742
G1 X114.219 Y111.329 E.00826
G1 X114.049 Y111.53 E.00825
G1 X113.955 Y111.574 E.00325
G1 X113.73 Y111.267 F9000
;TYPE:External perimeter
G1 F1200
G1 X113.62 Y111.326 E.00391
G1 X113.472 Y111.294 E.00475
G1 X108.277 Y107.545 E.20087
G1 X108.202 Y107.423 E.00449
G1 X108.222 Y107.302 E.00385
G1 X113.292 Y97.925 E.33423
G1 X113.442 Y97.826 E.00564
G1 X113.827 Y97.928 E.01249
G1 X113.903 Y98.079 E.0053
G1 X113.903 Y111.073 E.40742
G1 X113.853 Y111.202 E.00434
G1 X113.783 Y111.239 E.00248
G1 E-3.5 F3600
;WIPE_START
G1 F7200
G1 X113.73 Y111.267 E-.02847
G1 X113.62 Y111.326 E-.05929
G1 X113.472 Y111.294 E-.07192
G1 X111.184 Y109.643 E-1.34032
;WIPE_END
G1 X116.91 Y112.122 F9000
G1 E5 F2400
;TYPE:Perimeter
G1 F1200
G1 X116.741 Y112.033 E.00599
G1 X116.523 Y111.824 E.00947
G1 X116.396 Y111.595 E.00821
G1 X116.334 Y111.258 E.01074
G1 X116.334 Y98.079 E.41322
G1 X116.417 Y97.693 E.01238
G1 X116.575 Y97.45 E.00909
G1 X116.89 Y97.22 E.01223
G1 X117.045 Y97.166 E.00515
G1 X117.436 Y97.077 E.01257
G1 X117.612 Y97.075 E.00552
G1 X118.024 Y97.209 E.01358
G1 X118.363 Y97.566 E.01544
G1 X123.549 Y107.158 E.34189
G1 X123.66 Y107.536 E.01235
G1 X123.614 Y107.907 E.01172
G1 X123.458 Y108.193 E.01021
G1 X122.897 Y108.634 E.02237
G1 X117.948 Y112.098 E.18941
G1 X117.659 Y112.235 E.01003
G1 X117.418 Y112.269 E.00763
G1 X117.076 Y112.209 E.01089
G1 X116.963 Y112.15 E.004
G1 X117.086 Y111.784 F9000
G1 F1200
G1 X116.955 Y111.723 E.00453
G1 X116.825 Y111.598 E.00565
G1 X116.749 Y111.46 E.00494
G1 X116.711 Y111.073 E.01219
G1 X116.711 Y98.079 E.40742
G1 X116.761 Y97.848 E.00741
G1 X116.94 Y97.625 E.00897
G1 X117.138 Y97.531 E.00687
G1 X117.581 Y97.451 E.01411
G1 X117.828 Y97.531 E.00814
G1 X118.032 Y97.745 E.00927
G1 X123.218 Y107.338 E.34192
G1 X123.284 Y107.564 E.00738
G1 X123.232 Y107.847 E.00902
G1 X123.045 Y108.07 E.00913
G1 X117.732 Y111.789 E.20334
G1 X117.558 Y111.871 E.00603
G1 X117.296 Y111.88 E.00822
G1 X117.141 Y111.809 E.00535
G1 X117.261 Y111.448 F9000
;TYPE:External perimeter
G1 F1200
G1 X117.126 Y111.371 E.00487
G1 X117.088 Y111.258 E.00374
G1 X117.088 Y98.079 E.41322
G1 X117.164 Y97.928 E.0053
G1 X117.23 Y97.897 E.00229
G1 X117.55 Y97.826 E.01028
G1 X117.7 Y97.925 E.00564
G1 X122.886 Y107.517 E.34189
G1 X122.891 Y107.687 E.00533
G1 X122.465 Y108.016 E.01688
G1 X117.516 Y111.48 E.18941
G1 X117.37 Y111.511 E.00468
G1 X117.313 Y111.478 E.00207
G1 E-3.5 F3600
;WIPE_START
G1 F7200
G1 X117.261 Y111.448 E-.02852
G1 X117.126 Y111.371 E-.07382
G1 X117.088 Y111.258 E-.05663
G1 X117.088 Y108.435 E-1.34103
;WIPE_END
G1 X125.189 Y106.635 F9000
G1 E5 F2400
;TYPE:Perimeter
G1 F1200
G1 X125.018 Y106.585 E.00559
G1 X124.667 Y106.311 E.01396
G1 X124.577 Y106.175 E.00511
G1 X118.731 Y95.363 E.38538
G1 X118.621 Y94.983 E.0124
G1 X118.618 Y94.905 E.00245
G1 X118.643 Y94.699 E.00651
G1 X118.909 Y94.216 E.01729
G1 X119.049 Y94.069 E.00636
G1 X119.408 Y93.88 E.01272
G1 X119.815 Y93.86 E.01278
G1 X121.266 Y94.204 E.04676
G1 X122.676 Y94.637 E.04625
G1 X123.943 Y95.117 E.04248
G1 X124.869 Y95.536 E.03187
G1 X126.046 Y96.133 E.04138
G1 X126.513 Y96.383 E.01661
G1 X127.686 Y97.109 E.04325
G1 X128.84 Y97.929 E.04439
G1 X129.939 Y98.82 E.04436
G1 X130.979 Y99.781 E.0444
G1 X132.049 Y100.905 E.04866
G1 X132.202 Y101.119 E.00825
G1 X132.308 Y101.584 E.01495
G1 X132.258 Y101.858 E.00873
G1 X132.146 Y102.082 E.00785
G1 X131.906 Y102.326 E.01073
G1 X125.947 Y106.498 E.22808
G1 X125.756 Y106.601 E.0068
G1 X125.493 Y106.665 E.00849
G1 X125.274 Y106.66 E.00687
G1 X125.246 Y106.651 E.00092
G1 X125.283 Y106.26 F9000
G1 F1200
G1 X125.173 Y106.242 E.00349
G1 X124.963 Y106.077 E.00837
G1 X124.909 Y105.995 E.00308
G1 X119.063 Y95.184 E.38536
G1 X118.995 Y94.909 E.00888
G1 X119.01 Y94.785 E.00392
G1 X119.208 Y94.445 E.01234
G1 X119.292 Y94.357 E.00381
G1 X119.508 Y94.244 E.00764
G1 X119.788 Y94.239 E.00878
G1 X121.178 Y94.571 E.04481
G1 X122.508 Y94.978 E.04361
G1 X123.81 Y95.47 E.04364
G1 X124.713 Y95.879 E.03108
G1 X126.323 Y96.709 E.05679
G1 X127.487 Y97.43 E.04293
G1 X128.621 Y98.236 E.04362
G1 X129.701 Y99.113 E.04362
G1 X130.722 Y100.057 E.0436
G1 X131.776 Y101.165 E.04795
G1 X131.867 Y101.293 E.00492
G1 X131.931 Y101.572 E.00898
G1 X131.834 Y101.871 E.00986
G1 X131.69 Y102.018 E.00645
G1 X125.731 Y106.19 E.22808
G1 X125.458 Y106.289 E.00911
G1 X125.342 Y106.27 E.00369
G1 X125.348 Y105.891 F9000
;TYPE:External perimeter
G1 F1200
G1 X125.24 Y105.816 E.00412
G1 X119.395 Y95.004 E.38537
G1 X119.372 Y94.913 E.00294
G1 X119.411 Y94.8 E.00375
G1 X119.535 Y94.646 E.0062
G1 X119.7 Y94.606 E.00532
G1 X121.091 Y94.938 E.04484
G1 X122.398 Y95.339 E.04287
G1 X123.676 Y95.823 E.04285
G1 X124.557 Y96.222 E.03032
G1 X126.133 Y97.034 E.05559
G1 X127.289 Y97.751 E.04265
G1 X127.843 Y98.145 E.02132
G1 X128.403 Y98.543 E.02154
G1 X129.463 Y99.405 E.04284
G1 X130.466 Y100.334 E.04287
G1 X131.504 Y101.427 E.04726
G1 X131.554 Y101.56 E.00446
G1 X131.473 Y101.709 E.00532
G1 X125.514 Y105.881 E.22808
G1 X125.401 Y105.908 E.00364
G1 E-3.5 F3600
;WIPE_START
G1 F7200
G1 X125.348 Y105.891 E-.02644
G1 X125.24 Y105.816 E-.06246
G1 X123.827 Y103.203 E-1.4111
;WIPE_END
G1 X112.127 Y94.281 F9000
G1 E5 F2400
;TYPE:Perimeter
G1 F1200
G1 X112.179 Y94.341 E.00249
G1 X112.368 Y94.814 E.01597
G1 X112.361 Y95.069 E.008
G1 X112.26 Y95.363 E.00975
G1 X106.553 Y105.918 E.37622
G1 X106.411 Y106.116 E.00764
G1 X106.113 Y106.328 E.01147
G1 X105.867 Y106.402 E.00805
G1 X105.651 Y106.41 E.00678
G1 X105.313 Y106.318 E.01098
G1 X105.173 Y106.234 E.00512
G1 X99.339 Y102.024 E.22558
G1 X99.092 Y101.761 E.01131
G1 X98.988 Y101.532 E.00789
G1 X98.948 Y101.26 E.00862
G1 X99.105 Y100.738 E.01709
G1 X99.218 Y100.598 E.00564
G1 X100.237 Y99.563 E.04554
G1 X101.286 Y98.621 E.04421
G1 X102.336 Y97.791 E.04197
G1 X103.463 Y97.006 E.04306
G1 X104.638 Y96.293 E.04309
G1 X105.854 Y95.654 E.04307
G1 X107.124 Y95.086 E.04362
G1 X108.394 Y94.61 E.04252
G1 X109.708 Y94.209 E.04308
G1 X111.124 Y93.871 E.04564
G1 X111.613 Y93.889 E.01534
G1 X111.956 Y94.08 E.01231
G1 X112.088 Y94.235 E.00638
G1 X111.824 Y94.515 F9000
G1 F1200
G1 X111.981 Y94.785 E.00979
G1 X111.989 Y95.007 E.00697
G1 X111.928 Y95.184 E.00587
G1 X106.222 Y105.739 E.37621
G1 X106.136 Y105.857 E.00458
G1 X105.958 Y105.985 E.00687
G1 X105.68 Y106.034 E.00885
G1 X105.393 Y105.928 E.00959
G1 X99.559 Y101.718 E.22558
G1 X99.411 Y101.56 E.00679
G1 X99.325 Y101.26 E.00979
G1 X99.419 Y100.946 E.01028
G1 X99.487 Y100.863 E.00336
G1 X100.506 Y99.827 E.04556
G1 X101.538 Y98.902 E.04345
G1 X102.569 Y98.086 E.04123
G1 X103.678 Y97.316 E.04233
G1 X104.833 Y96.615 E.04236
G1 X106.029 Y95.988 E.04234
G1 X107.271 Y95.433 E.04265
G1 X108.526 Y94.963 E.04202
G1 X109.818 Y94.569 E.04235
G1 X111.209 Y94.238 E.04483
G1 X111.502 Y94.249 E.00919
G1 X111.784 Y94.446 E.01079
G1 X111.794 Y94.463 E.00062
G1 X111.522 Y94.745 F9000
;TYPE:External perimeter
G1 F1200
G1 X111.618 Y94.894 E.00556
G1 X111.597 Y95.004 E.00351
G1 X105.89 Y105.559 E.37622
G1 X105.753 Y105.656 E.00526
G1 X105.614 Y105.623 E.00448
G1 X99.78 Y101.412 E.22559
G1 X99.71 Y101.314 E.00378
G1 X99.733 Y101.155 E.00504
G1 X100.775 Y100.092 E.04667
G1 X101.413 Y99.519 E.02689
G1 X102.803 Y98.382 E.05631
G1 X103.893 Y97.625 E.04161
G1 X105.028 Y96.938 E.0416
G1 X106.204 Y96.322 E.04162
G1 X107.419 Y95.78 E.04171
G1 X108.658 Y95.317 E.04147
G1 X109.93 Y94.93 E.04169
G1 X111.293 Y94.606 E.04393
G1 X111.459 Y94.648 E.00537
G1 X111.49 Y94.695 E.00177
G1 E-3.5 F3600
;WIPE_START
G1 F7200
G1 X111.522 Y94.745 E-.0282
G1 X111.618 Y94.894 E-.08419
G1 X111.597 Y95.004 E-.05319
G1 X110.261 Y97.475 E-1.33442
;WIPE_END
G1 X104.857 Y108.549 F9000
G1 E5 F2400
;TYPE:Perimeter
G1 F1200
G1 X104.886 Y108.852 E.00954
G1 X104.778 Y109.202 E.01148
G1 X96.875 Y123.82 E.52103
G1 X96.677 Y124.071 E.01002
G1 X96.427 Y124.234 E.00936
G1 X95.975 Y124.312 E.01438
G1 X95.722 Y124.288 E.00797
G1 X95.363 Y124.143 E.01214
G1 X95.067 Y123.822 E.01369
G1 X95.002 Y123.68 E.0049
G1 X94.529 Y122.37 E.04367
