; generated by PrusaSlicer 2.9.1 on 2025-05-10 at 16:55:46 UTC

; 

; external perimeters extrusion width = 0.42mm
; perimeters extrusion width = 0.44mm
; infill extrusion width = 0.44mm
; solid infill extrusion width = 0.44mm
; top infill extrusion width = 0.40mm
; first layer extrusion width = 0.42mm

M201 X500 Y500 Z100 E5000 ; sets maximum accelerations, mm/sec^2
M203 X500 Y500 Z10 E60 ; sets maximum feedrates, mm / sec
M204 S500 T1000 ; sets acceleration (S) and retract acceleration (R), mm/sec^2
M205 X8.00 Y8.00 Z0.40 E5.00 ; sets the jerk limits, mm/sec
M205 S0 T0 ; sets the minimum extruding and travel feed rate, mm/sec

; printing object MIG-29_kit.stl id:0 copy 0
; stop printing object MIG-29_kit.stl id:0 copy 0

;TYPE:Custom
G90 ; use absolute coordinates
M83 ; extruder relative mode
M104 S150 ; set temporary nozzle temp to prevent oozing during homing
M140 S60 ; set final bed temp
G4 S30 ; allow partial nozzle warmup
G28 ; home all axis
G1 Z50 F240
G1 X2.0 Y10 F3000
M104 S210 ; set final nozzle temp
M190 S60 ; wait for bed temp to stabilize
M109 S210 ; wait for nozzle temp to stabilize
G1 Z0.28 F240
G92 E0
G1 X2.0 Y140 E10 F1500 ; prime the nozzle
G1 X2.3 Y140 F5000
G92 E0
G1 X2.3 Y10 E10 F1200 ; prime the nozzle
G92 E0
G21 ; set units to millimeters
G90 ; use absolute coordinates
M83 ; use relative distances for extrusion
; Filament gcode
M107
;LAYER_CHANGE
;Z:0.2
;HEIGHT:0.2
G1 E-5 F3600
G1 Z.2 F9000
G1 X74.969 Y59.595
G1 Z.2
G1 E5 F2400
M204 S500
;TYPE:Skirt/Brim
;WIDTH:0.42
G1 F1200
G1 X75.696 Y58.805 E.03366
G1 X76.563 Y58.173 E.03364
G1 X77.968 Y57.591 E.04768
G1 X79.341 Y57.41 E.04342
G1 X144.367 Y57.425 E2.03884
G1 X145.428 Y57.591 E.03367
G1 X146.436 Y57.961 E.03367
G1 X147.7 Y58.805 E.04765
G1 X148.142 Y59.247 E.0196
G1 X148.774 Y60.115 E.03367
G1 X149.226 Y61.089 E.03367
G1 X149.467 Y62.033 E.03055
G1 X157.115 Y120.683 E1.8545
G1 X157.142 Y168.107 E1.48695
G1 X156.96 Y169.481 E.04346
G1 X156.379 Y170.885 E.04764
G1 X155.746 Y171.753 E.03368
G1 X155.304 Y172.195 E.0196
G1 X154.437 Y172.827 E.03364
G1 X153.032 Y173.409 E.04768
G1 X151.659 Y173.59 E.04342
G1 X79.341 Y173.591 E2.26748
G1 X77.968 Y173.409 E.04343
G1 X76.563 Y172.827 E.04768
G1 X75.696 Y172.195 E.03364
G1 X75.254 Y171.753 E.0196
G1 X74.621 Y170.885 E.03368
G1 X74.04 Y169.481 E.04764
G1 X73.858 Y168.107 E.04346
G1 X73.858 Y62.893 E3.29891
G1 X74.04 Y61.519 E.04346
G1 X74.621 Y60.115 E.04764
G1 X74.935 Y59.645 E.01772
G1 E-3.5 F3600
;WIPE_START
G1 F7200
G1 X74.969 Y59.595 E-.02872
G1 X75.696 Y58.805 E-.50996
G1 X76.563 Y58.173 E-.50963
G1 X77.442 Y57.809 E-.45169
;WIPE_END
; printing object MIG-29_kit.stl id:0 copy 0
G1 X120.407 Y94.55 F9000
G1 E5 F2400
;TYPE:External perimeter
;WIDTH:0.419999
G1 F1200
G1 X120.427 Y94.492 E.00192
G1 X127.969 Y84.75 E.38629
G1 X128.601 Y83.988 E.03104
G1 X129.041 Y83.572 E.01899
G1 X129.243 Y83.617 E.00649
G1 X129.874 Y84.178 E.02647
G1 X130.332 Y84.67 E.02108
G1 X130.425 Y84.77 E.00428
G1 X137.998 Y88.301 E.26199
G1 X144.043 Y88.301 E.18954
G1 X144.179 Y88.36 E.00465
G1 X144.231 Y88.49 E.00439
G1 X144.231 Y110.425 E.68776
G1 X144.182 Y110.552 E.00427
G1 X144.122 Y110.596 E.00233
G1 X143.965 Y110.597 E.00492
G1 X137.094 Y107.506 E.23623
G1 X136.303 Y107.455 E.02485
G1 X135.724 Y107.386 E.01828
;WIDTH:0.418288
G1 X135.618 Y107.204 E.00657
;WIDTH:0.419999
G1 X135.652 Y107.01 E.00618
G1 X136.362 Y106.25 E.03261
G1 X140.175 Y102.447 E.16885
G1 X140.559 Y101.922 E.02039
G1 X140.862 Y101.293 E.02189
G1 X141.023 Y100.605 E.02215
G1 X141.06 Y99.931 E.02116
G1 X141.1 Y99.669 E.00831
G1 X141.391 Y99.47 E.01105
G1 X141.441 Y97.966 E.04718
G1 X141.191 Y97.817 E.00913
G1 X141.166 Y97.723 E.00305
G1 X141.174 Y96.515 E.03788
G1 X141.07 Y94.903 E.05065
G1 X141.004 Y94.864 E.0024
G1 X137.428 Y95.557 E.11421
G1 X137.301 Y95.538 E.00403
G1 X137.203 Y95.372 E.00604
G1 X137.203 Y95.198 E.00546
G1 X130.641 Y96.443 E.20942
G1 X130.641 Y96.691 E.00778
G1 X130.553 Y96.85 E.0057
G1 X130.061 Y96.949 E.01574
G1 X120.597 Y98.554 E.30097
G1 X120.474 Y98.533 E.00391
G1 X120.377 Y98.368 E.006
G1 X120.388 Y94.607 E.11792
G1 E-3.5 F3600
;WIPE_START
G1 F7200
G1 X120.407 Y94.55 E-.02854
G1 X120.427 Y94.492 E-.02914
G1 X122.286 Y92.091 E-1.44232
;WIPE_END
G1 X112.616 Y75.853 F9000
G1 E5 F2400
G1 F1200
G1 X112.54 Y75.942 E.00367
;WIDTH:0.417311
G1 X111.579 Y76.128 E.03047
;WIDTH:0.41864
G1 X111.51 Y76.139 E.00218
;WIDTH:0.420601
G1 X110.451 Y76.293 E.03361
G1 X109.443 Y76.409 E.03186
;WIDTH:0.420989
G1 X108.461 Y76.465 E.03092
;WIDTH:0.421384
G1 X108.436 Y76.466 E.00079
G1 X107.527 Y76.489 E.02861
;WIDTH:0.421561
G1 X106.603 Y76.402 E.02922
G1 X105.542 Y76.204 E.03398
;WIDTH:0.420327
G1 X104.673 Y75.939 E.02851
;WIDTH:0.462339
G1 X104.617 Y75.893 E.00253
;WIDTH:0.504678
G1 X104.561 Y75.847 E.00278
G1 X104.585 Y75.749 E.00387
;WIDTH:0.464634
G1 X104.61 Y75.651 E.00355
;WIDTH:0.42459
G1 X104.635 Y75.553 E.00321
;WIDTH:0.384545
G1 X104.762 Y74.34 E.03465
;WIDTH:0.403152
G1 X104.802 Y74.232 E.00345
;WIDTH:0.419999
G1 X104.921 Y74.171 E.00419
G1 X105.88 Y74.13 E.0301
G1 X108.649 Y74.268 E.08693
G1 X110.501 Y74.318 E.05809
G1 X112.435 Y74.345 E.06065
G1 X112.559 Y74.394 E.00418
G1 X112.62 Y74.516 E.00428
G1 X112.697 Y75.34 E.02595
G1 X112.693 Y75.762 E.01323
G1 X112.655 Y75.807 E.00185
G1 E-3.5 F3600
;WIPE_START
G1 F7200
G1 X112.616 Y75.853 E-.02865
G1 X112.54 Y75.942 E-.05559
G1 X111.579 Y76.128 E-.46495
G1 X111.51 Y76.139 E-.03319
G1 X110.451 Y76.293 E-.50832
G1 X109.595 Y76.392 E-.4093
;WIPE_END
G1 X104.265 Y75.607 F9000
G1 E5 F2400
;WIDTH:0.464634
G1 F1200
G1 X104.253 Y75.641 E.00126
;WIDTH:0.504678
G1 X104.232 Y75.703 E.00251
G1 X104.142 Y75.688 E.0035
;WIDTH:0.463877
G1 X104.053 Y75.673 E.00316
;WIDTH:0.424431
G1 X102.965 Y75.22 E.03739
;WIDTH:0.422255
G1 X101.52 Y74.546 E.05029
;WIDTH:0.419999
G1 X101.324 Y74.23 E.01166
G1 X101.217 Y74.015 E.00753
G1 X101.257 Y73.793 E.00707
G1 X101.358 Y73.744 E.00352
G1 X102.28 Y73.652 E.02905
G1 X103.536 Y73.721 E.03944
G1 X104.323 Y73.866 E.02509
G1 X104.441 Y73.94 E.00437
G1 X104.468 Y74.071 E.00419
;WIDTH:0.403152
G1 X104.429 Y74.306 E.00714
;WIDTH:0.384545
G1 X104.296 Y75.517 E.03461
;WIDTH:0.42459
G1 X104.284 Y75.551 E.00114
G1 E-3.5 F3600
;WIPE_START
G1 F7200
G1 X104.265 Y75.607 E-.02809
G1 X104.253 Y75.641 E-.01713
G1 X104.232 Y75.703 E-.03109
G1 X104.142 Y75.688 E-.04334
G1 X104.053 Y75.673 E-.04287
G1 X102.965 Y75.22 E-.55981
G1 X101.52 Y74.546 E-.75737
G1 X101.497 Y74.51 E-.0203
;WIPE_END
G1 X90.07 Y68.188 F9000
G1 E5 F2400
;WIDTH:0.534282
G1 F1200
G1 X90.133 Y68.07 E.00547
;WIDTH:0.496188
G1 X90.197 Y67.951 E.00509
;WIDTH:0.458094
G1 X90.26 Y67.833 E.00462
;WIDTH:0.419999
G1 X90.448 Y67.181 E.02128
G1 X90.751 Y66.429 E.02542
G1 X90.751 Y62.936 E.10952
G1 X90.811 Y62.799 E.00469
G1 X90.94 Y62.747 E.00436
G1 X129.637 Y62.747 E1.21332
G1 X129.803 Y62.847 E.00608
G1 X129.825 Y62.936 E.00287
G1 X129.825 Y66.143 E.10055
G1 X130.122 Y66.878 E.02486
;WIDTH:0.428641
G1 X130.317 Y67.536 E.02201
;WIDTH:0.475755
G1 X130.383 Y67.643 E.00452
;WIDTH:0.522869
G1 X130.448 Y67.75 E.005
;WIDTH:0.569982
G1 X130.514 Y67.856 E.00547
G1 X130.581 Y67.75 E.0055
;WIDTH:0.522869
G1 X130.647 Y67.643 E.00502
;WIDTH:0.475755
G1 X130.713 Y67.536 E.00452
;WIDTH:0.428641
G1 X130.902 Y66.896 E.0214
;WIDTH:0.419999
G1 X131.205 Y66.143 E.02545
G1 X131.205 Y62.936 E.10055
G1 X131.264 Y62.799 E.00468
G1 X131.394 Y62.747 E.00439
G1 X143.389 Y62.747 E.37609
G1 X143.923 Y62.953 E.01795
G1 X144.025 Y63.055 E.00452
G1 X144.231 Y63.589 E.01795
G1 X144.231 Y86.741 E.72591
G1 X144.179 Y86.871 E.00439
G1 X144.043 Y86.929 E.00464
G1 X138.628 Y86.929 E.16978
G1 X138.469 Y86.876 E.00525
G1 X131.009 Y83.519 E.25649
G1 X129.786 Y83.438 E.03843
G1 X129.458 Y83.325 E.01088
G1 X129.372 Y83.145 E.00625
G1 X129.87 Y82.304 E.03065
G1 X131.194 Y80.584 E.06806
G1 X131.321 Y80.341 E.0086
G1 X131.374 Y79.878 E.01461
G1 X131.324 Y79.509 E.01168
G1 X131.194 Y79.175 E.01124
G1 X129.886 Y76.752 E.08633
G1 X121.175 Y81.028 E.30426
G1 X121.159 Y81.301 E.00857
G1 X121.117 Y81.408 E.0036
G1 X120.974 Y81.478 E.00499
G1 X120.812 Y81.48 E.00508
G1 X120.18 Y83.673 E.07156
G1 X120.11 Y83.773 E.00383
G1 X119.772 Y83.809 E.01066
G1 X119.574 Y83.809 E.00621
G1 X119.44 Y84.058 E.00887
G1 X119.44 Y102.428 E.57598
G1 X119.37 Y102.574 E.00508
G1 X119.251 Y102.617 E.00397
G1 X117.01 Y102.617 E.07026
G1 X116.871 Y102.555 E.00477
G1 X116.821 Y102.428 E.00428
G1 X116.821 Y86.224 E.50806
G1 X116.271 Y86.221 E.01725
G1 X115.363 Y86.12 E.02865
;WIDTH:0.467484
G1 X115.284 Y86.065 E.0034
;WIDTH:0.514969
G1 X115.204 Y86.01 E.00381
;WIDTH:0.562454
G1 X115.125 Y85.955 E.00416
G1 X115.046 Y86.01 E.00416
;WIDTH:0.514969
G1 X114.967 Y86.065 E.00378
;WIDTH:0.467484
G1 X114.889 Y86.12 E.00337
;WIDTH:0.419999
G1 X114.049 Y86.22 E.02652
G1 X113.348 Y86.225 E.02198
G1 X113.1 Y86.203 E.00781
G1 X112.651 Y85.96 E.01601
G1 X112.475 Y86.963 E.03193
G1 X112.394 Y87.087 E.00464
G1 X112.289 Y87.119 E.00344
G1 X111.273 Y87.119 E.03186
G1 X111.133 Y87.057 E.0048
G1 X110.999 Y86.463 E.01909
G1 X110.911 Y85.96 E.01601
G1 X110.462 Y86.203 E.01601
G1 X109.262 Y86.226 E.03763
G1 X106.741 Y86.226 E.07904
G1 X106.741 Y102.428 E.508
G1 X106.672 Y102.574 E.00506
G1 X106.552 Y102.617 E.004
G1 X104.311 Y102.617 E.07026
G1 X104.164 Y102.547 E.0051
G1 X104.122 Y102.428 E.00396
G1 X104.122 Y84.058 E.57598
G1 X103.988 Y83.809 E.00887
G1 X103.563 Y83.809 E.01333
G1 X103.414 Y83.736 E.0052
G1 X102.75 Y81.48 E.07374
G1 X102.588 Y81.478 E.00508
G1 X102.445 Y81.408 E.00499
G1 X102.403 Y81.301 E.0036
G1 X102.387 Y81.028 E.00857
G1 X93.677 Y76.752 E.30423
G1 X92.283 Y79.334 E.092
G1 X92.188 Y79.706 E.01204
G1 X92.209 Y80.181 E.01491
G1 X92.322 Y80.495 E.01046
G1 X93.679 Y82.286 E.07045
G1 X94.151 Y83.056 E.02832
G1 X94.186 Y83.132 E.00262
G1 X94.106 Y83.332 E.00675
G1 X93.277 Y83.478 E.02639
G1 X92.601 Y83.513 E.02122
G1 X92.345 Y83.573 E.00824
G1 X84.923 Y86.913 E.25519
G1 X84.846 Y86.929 E.00247
G1 X79.353 Y86.929 E.17223
G1 X79.217 Y86.871 E.00464
G1 X79.165 Y86.741 E.00439
G1 X79.165 Y63.589 E.72591
G1 X79.353 Y63.099 E.01646
G1 X79.46 Y62.959 E.00552
G1 X79.935 Y62.762 E.01612
G1 X80.007 Y62.747 E.00231
G1 X89.183 Y62.747 E.28771
G1 X89.349 Y62.847 E.00608
G1 X89.371 Y62.936 E.00287
G1 X89.371 Y66.429 E.10952
G1 X89.668 Y67.164 E.02486
G1 X89.867 Y67.834 E.02191
;WIDTH:0.458094
G1 X89.935 Y67.952 E.0047
;WIDTH:0.496188
G1 X90.002 Y68.07 E.00511
;WIDTH:0.534282
G1 X90.04 Y68.136 E.00311
G1 E-3.5 F3600
;WIPE_START
G1 F7200
G1 X90.07 Y68.188 E-.02852
G1 X90.133 Y68.07 E-.06354
G1 X90.197 Y67.951 E-.06418
G1 X90.26 Y67.833 E-.06354
G1 X90.448 Y67.181 E-.32232
G1 X90.751 Y66.429 E-.38511
G1 X90.751 Y65.223 E-.57279
;WIPE_END
G1 X135.644 Y131.514 F9000
G1 E5 F2400
;TYPE:Perimeter
;WIDTH:0.419999
G1 F1200
G1 X135.651 Y131.642 E.00402
G1 X135.702 Y131.876 E.00751
G1 X135.63 Y132.116 E.00786
G1 X135.536 Y132.68 E.01793
G1 X135.463 Y133.694 E.03188
G1 X134.785 Y151.186 E.54886
G1 X134.757 Y152.034 E.0266
G1 X134.765 Y153.077 E.0327
G1 X134.835 Y153.669 E.01869
G1 X134.691 Y154.484 E.02595
G1 X134.647 Y155.053 E.01789
G1 X134.459 Y155.327 E.01042
G1 X134.362 Y155.705 E.01224
G1 X134.2 Y159.462 E.11791
G1 X134.223 Y159.712 E.00787
G1 X134.426 Y160.116 E.01418
G1 X134.076 Y163.023 E.09181
G1 X130.647 Y163.027 E.10751
G1 X130.407 Y162.761 E.01123
G1 X128.493 Y162.023 E.06432
G1 X128.133 Y161.96 E.01146
G1 X127.761 Y162.045 E.01196
G1 X127.528 Y162.198 E.00874
G1 X127.14 Y162.726 E.02054
G1 X121.565 Y162.947 E.17494
G1 X120.505 Y163.092 E.03355
G1 X120.15 Y163.097 E.01113
G1 X119.255 Y163.041 E.02812
G1 X118.185 Y163.076 E.03357
G1 X117.231 Y161.48 E.0583
G1 X127.075 Y150.027 E.47352
G1 X127.746 Y149.216 E.033
G1 X127.845 Y148.949 E.00893
G1 X128.137 Y147.508 E.0461
G1 X128.224 Y146.38 E.03547
G1 X128.311 Y146.198 E.00632
G1 X128.574 Y145.393 E.02655
G1 X128.824 Y145.436 E.00795
G1 X130.782 Y145.436 E.06139
G1 X131.311 Y145.405 E.01661
G1 X131.684 Y145.209 E.01321
G1 X131.852 Y145.02 E.00793
G1 X131.971 Y144.774 E.00857
G1 X132.013 Y144.493 E.00891
G1 X132.008 Y118.513 E.81458
G1 X135.001 Y121.888 E.14144
G1 X135.823 Y124.412 E.08323
G1 X135.591 Y130.546 E.19246
G1 X135.641 Y131.454 E.02851
G1 X136.156 Y131.893 F9000
G1 F1200
G1 X136.095 Y131.921 E.0021
G1 X136.001 Y132.182 E.0087
G1 X135.912 Y132.707 E.0167
G1 X135.84 Y133.709 E.0315
G1 X135.134 Y152.036 E.57506
G1 X135.14 Y153.041 E.03151
G1 X135.199 Y153.57 E.01669
G1 X135.301 Y153.74 E.00622
G1 X135.265 Y153.755 E.00122
G1 X135.163 Y153.987 E.00795
G1 X135.067 Y154.513 E.01676
G1 X135.014 Y155.193 E.02139
G1 X134.797 Y155.495 E.01166
G1 X134.738 Y155.722 E.00735
G1 X134.577 Y159.478 E.11787
G1 X134.602 Y159.672 E.00613
G1 X134.819 Y160.001 E.01236
G1 X134.411 Y163.4 E.10734
G1 X130.517 Y163.404 E.12209
G1 X130.271 Y163.113 E.01195
G1 X128.357 Y162.375 E.06432
G1 X128.068 Y162.343 E.00912
G1 X127.846 Y162.428 E.00745
G1 X127.682 Y162.59 E.00723
G1 X127.348 Y163.095 E.01898
G1 X121.58 Y163.324 E.18099
G1 X120.626 Y163.455 E.03019
G1 X120.382 Y163.521 E.00793
G1 X120.124 Y163.474 E.00822
G1 X119.267 Y163.418 E.02693
G1 X117.975 Y163.46 E.04053
G1 X116.768 Y161.44 E.07378
G1 X127.351 Y149.127 E.50907
G1 X127.474 Y148.878 E.00871
G1 X127.761 Y147.47 E.04505
G1 X127.855 Y146.542 E.02925
G1 X127.829 Y146.296 E.00776
G1 X127.953 Y146.08 E.00781
G1 X128.249 Y145.164 E.03018
G1 X128.358 Y144.651 E.01644
G1 X128.578 Y145.003 E.01301
G1 X128.824 Y145.059 E.00791
G1 X131.215 Y145.04 E.07497
G1 X131.439 Y144.922 E.00794
G1 X131.611 Y144.661 E.0098
G1 X131.636 Y144.493 E.00533
G1 X131.631 Y118.184 E.8249
G1 X131.604 Y117.426 E.02378
G1 X131.994 Y117.929 E.01996
G1 X135.335 Y121.697 E.1579
G1 X136.203 Y124.359 E.08779
G1 X135.967 Y130.561 E.1946
G1 X136.027 Y131.619 E.03323
G1 X136.098 Y131.861 E.00791
G1 X136.103 Y131.864 E.00018
G1 E-3.5 F3600
;WIPE_START
G1 F7200
G1 X136.156 Y131.893 E-.0287
G1 X136.095 Y131.921 E-.03188
G1 X136.001 Y132.182 E-.13177
G1 X135.912 Y132.707 E-.25293
G1 X135.84 Y133.709 E-.47718
G1 X135.793 Y134.924 E-.57754
;WIPE_END
G1 X125.593 Y145.916 F9000
G1 E5 F2400
;WIDTH:0.544511
G1 F1200
G1 X126.212 Y146.167 E.02786
G1 X125.544 Y146.417 E.02975
;WIDTH:0.544643
G1 X116.537 Y146.418 E.37576
G1 X116.432 Y146.398 E.00446
G1 X115.909 Y146.173 E.02375
G1 X116.537 Y145.916 E.02831
G1 X125.533 Y145.916 E.3753
G1 E-3.5 F3600
;WIPE_START
G1 F7200
G1 X125.593 Y145.916 E-.0285
G1 X126.212 Y146.167 E-.31728
G1 X125.544 Y146.417 E-.33879
G1 X123.827 Y146.417 E-.81543
;WIPE_END
G1 X107.458 Y146.167 F9000
G1 E5 F2400
;WIDTH:0.544511
G1 F1200
G1 X106.79 Y146.417 E.02975
;WIDTH:0.544615
G1 X97.787 Y146.417 E.37557
G1 X97.681 Y146.396 E.00451
G1 X97.142 Y146.155 E.02463
G1 X97.787 Y145.916 E.02869
G1 X106.79 Y145.916 E.37557
;WIDTH:0.544511
G1 X106.838 Y145.916 E.002
G1 X107.402 Y146.144 E.02537
G1 E-3.5 F3600
;WIPE_START
G1 F7200
G1 X107.458 Y146.167 E-.02876
G1 X106.79 Y146.417 E-.33879
G1 X104.406 Y146.417 E-1.13245
;WIPE_END
G1 X103.213 Y163.077 F9000
G1 E5 F2400
;WIDTH:0.419999
G1 F1200
G1 X103.137 Y163.081 E.00239
G1 X102.571 Y163.072 E.01775
G1 X102.065 Y162.986 E.01609
G1 X101.527 Y162.935 E.01694
G1 X96.254 Y162.726 E.16546
G1 X95.866 Y162.198 E.02054
G1 X95.632 Y162.045 E.00877
G1 X95.26 Y161.96 E.01196
G1 X94.901 Y162.023 E.01143
G1 X92.987 Y162.761 E.06432
G1 X92.747 Y163.027 E.01123
G1 X89.317 Y163.023 E.10755
G1 X88.97 Y160.138 E.09111
G1 X89.151 Y159.785 E.01244
G1 X89.194 Y159.46 E.01028
G1 X89.027 Y155.705 E.11785
G1 X88.954 Y155.38 E.01044
G1 X88.676 Y154.988 E.01507
G1 X88.599 Y154.614 E.01197
G1 X88.679 Y153.819 E.02505
G1 X88.673 Y152.833 E.03092
G1 X87.571 Y124.411 E.89182
G1 X88.393 Y121.888 E.0832
G1 X91.386 Y118.513 E.14144
G1 X91.38 Y144.493 E.81458
G1 X91.401 Y144.692 E.00627
G1 X91.541 Y145.02 E.01118
G1 X91.709 Y145.209 E.00793
G1 X92.083 Y145.405 E.01324
G1 X92.323 Y145.436 E.00759
G1 X94.57 Y145.436 E.07045
G1 X94.818 Y145.396 E.00788
G1 X95.16 Y146.381 E.03269
G1 X95.158 Y146.551 E.00533
G1 X95.268 Y147.587 E.03267
G1 X95.596 Y149.106 E.04872
G1 X95.757 Y149.373 E.00978
G1 X106.162 Y161.48 E.50053
G1 X105.21 Y163.074 E.05821
