; generated by PrusaSlicer 2.9.1 on 2025-05-10 at 16:53:04 UTC

; 

; external perimeters extrusion width = 0.42mm
; perimeters extrusion width = 0.44mm
; infill extrusion width = 0.44mm
; solid infill extrusion width = 0.44mm
; top infill extrusion width = 0.40mm
; first layer extrusion width = 0.42mm

M201 X500 Y500 Z100 E5000 ; sets maximum accelerations, mm/sec^2
M203 X500 Y500 Z10 E60 ; sets maximum feedrates, mm / sec
M204 S500 T1000 ; sets acceleration (S) and retract acceleration (R), mm/sec^2
M205 X8.00 Y8.00 Z0.40 E5.00 ; sets the jerk limits, mm/sec
M205 S0 T0 ; sets the minimum extruding and travel feed rate, mm/sec

; printing object Phone_Stand_02.stl id:0 copy 0
; stop printing object Phone_Stand_02.stl id:0 copy 0

;TYPE:Custom
G90 ; use absolute coordinates
M83 ; extruder relative mode
M104 S150 ; set temporary nozzle temp to prevent oozing during homing
M140 S60 ; set final bed temp
G4 S30 ; allow partial nozzle warmup
G28 ; home all axis
G1 Z50 F240
G1 X2.0 Y10 F3000
M104 S210 ; set final nozzle temp
M190 S60 ; wait for bed temp to stabilize
M109 S210 ; wait for nozzle temp to stabilize
G1 Z0.28 F240
G92 E0
G1 X2.0 Y140 E10 F1500 ; prime the nozzle
G1 X2.3 Y140 F5000
G92 E0
G1 X2.3 Y10 E10 F1200 ; prime the nozzle
G92 E0
G21 ; set units to millimeters
G90 ; use absolute coordinates
M83 ; use relative distances for extrusion
; Filament gcode
M107
;LAYER_CHANGE
;Z:0.2
;HEIGHT:0.2
G1 E-5 F3600
G1 Z.2 F9000
G1 X82.794 Y83.979
G1 Z.2
G1 E5 F2400
M204 S500
;TYPE:Skirt/Brim
;WIDTH:0.42
G1 F1200
G1 X83.529 Y83.289 E.03161
G1 X84.629 Y82.442 E.04353
G1 X86.005 Y81.63 E.0501
G1 X86.922 Y81.213 E.03159
G1 X88.237 Y80.766 E.04355
G1 X89.219 Y80.537 E.03162
G1 X90.804 Y80.341 E.05008
G1 X151.584 Y80.32 E1.90571
G1 X153.119 Y80.714 E.04969
G1 X154.275 Y81.798 E.04969
G1 X154.766 Y83.304 E.04967
G1 X154.632 Y84.446 E.03605
G1 X152.021 Y92.931 E.27835
G1 X151.41 Y94.347 E.04835
G1 X120.286 Y140.005 E1.73255
G1 X119.09 Y141.263 E.05442
G1 X117.462 Y142.419 E.0626
G1 X115.875 Y143.136 E.0546
G1 X113.931 Y143.593 E.06261
G1 X112.191 Y143.659 E.0546
G1 X110.219 Y143.349 E.06259
G1 X108.582 Y142.754 E.05461
G1 X106.872 Y141.724 E.06259
G1 X105.58 Y140.556 E.05461
G1 X104.793 Y139.585 E.03919
G1 X104.32 Y138.852 E.02735
G1 X80.959 Y98.63 E1.45841
G1 X80.299 Y97.313 E.04619
G1 X79.767 Y95.807 E.05008
G1 X79.436 Y94.244 E.05009
G1 X79.312 Y92.639 E.05047
G1 X79.398 Y91.057 E.04968
G1 X79.692 Y89.487 E.05008
G1 X80.189 Y87.968 E.05011
G1 X80.88 Y86.528 E.05008
G1 X81.753 Y85.191 E.05007
G1 X82.755 Y84.025 E.0482
G1 E-3.5 F3600
;WIPE_START
G1 F7200
G1 X82.794 Y83.979 E-.02865
G1 X83.529 Y83.289 E-.47886
G1 X84.629 Y82.442 E-.65945
G1 X85.233 Y82.086 E-.33304
;WIPE_END
; printing object Phone_Stand_02.stl id:0 copy 0
G1 X106.542 Y84.573 F9000
G1 E5 F2400
;TYPE:Perimeter
;WIDTH:0.419999
G1 F1200
G1 X106.542 Y85.445 E.02734
G1 X90.951 Y85.448 E.48884
G1 X89.973 Y85.527 E.03076
G1 X89.417 Y85.651 E.01786
;WIDTH:0.464754
G1 X89.315 Y85.653 E.00358
;WIDTH:0.509508
G1 X89.213 Y85.655 E.00396
;WIDTH:0.554262
G1 X89.11 Y85.658 E.00438
;WIDTH:0.599016
G1 X89.008 Y85.66 E.00472
G1 X88.688 Y85.76 E.0155
;WIDTH:0.584416
G1 X87.789 Y86.158 E.04427
;WIDTH:0.556835
G1 X87.397 Y86.394 E.01955
;WIDTH:0.550072
G1 X86.611 Y86.944 E.04045
;WIDTH:0.521065
G1 X85.96 Y87.539 E.03506
;WIDTH:0.49629
G1 X85.581 Y87.986 E.02209
;WIDTH:0.493428
G1 X85.269 Y88.383 E.01891
;WIDTH:0.477785
G1 X85.017 Y88.779 E.01697
;WIDTH:0.473319
G1 X84.564 Y89.641 E.03485
;WIDTH:0.456045
G1 X84.234 Y90.54 E.0329
;WIDTH:0.446837
G1 X84.027 Y91.551 E.03466
;WIDTH:0.441157
G1 X83.988 Y92.025 E.01575
G1 X83.984 Y93.005 E.03245
;WIDTH:0.437994
G1 X84.097 Y93.904 E.02977
;WIDTH:0.450874
G1 X84.389 Y94.95 E.03684
;WIDTH:0.460159
G1 X84.574 Y95.385 E.0164
;WIDTH:0.464618
G1 X84.79 Y95.842 E.01772
G1 X85.031 Y96.29 E.01784
;WIDTH:0.464418
G1 X107.811 Y135.513 E1.5897
;WIDTH:0.467405
G1 X107.863 Y135.595 E.00343
;WIDTH:0.506974
G1 X108.459 Y136.417 E.03918
G1 X108.783 Y136.685 E.01622
;WIDTH:0.463487
G1 X109.106 Y136.953 E.01468
;WIDTH:0.419999
G1 X109.602 Y137.272 E.01849
G1 X110.132 Y137.569 E.01905
G1 X110.923 Y137.848 E.0263
G1 X111.5 Y137.948 E.01836
G1 X112.101 Y138.013 E.01895
G1 X112.946 Y137.96 E.02655
G1 X113.39 Y137.859 E.01428
G1 X114.099 Y137.647 E.0232
G1 X114.592 Y137.399 E.0173
G1 X115.081 Y137.109 E.01783
G1 X115.692 Y136.626 E.02442
G1 X116.042 Y136.23 E.01657
G1 X116.431 Y135.74 E.01962
G1 X116.842 Y134.988 E.02687
G1 X117.046 Y134.448 E.0181
G1 X132.392 Y84.573 E1.63614
G1 X150.143 Y84.573 E.55657
G1 X149.21 Y87.605 E.09947
G1 X147.971 Y91.633 E.13213
G1 X147.731 Y92.207 E.01951
G1 X147.411 Y92.682 E.01796
G1 X147.005 Y93.087 E.01798
G1 X146.528 Y93.404 E.01796
G1 X146.022 Y93.613 E.01717
G1 X145.559 Y93.71 E.01483
G1 X146.628 Y90.235 E.11399
G1 X146.659 Y89.816 E.01317
G1 X146.526 Y89.458 E.01197
G1 X146.311 Y89.217 E.01013
G1 X146.004 Y89.056 E.01087
G1 X134.303 Y85.456 E.38385
G1 X134.188 Y85.428 E.00371
G1 X133.863 Y85.428 E.01019
G1 X133.352 Y85.697 E.01811
G1 X133.125 Y86.08 E.01396
G1 X117.904 Y135.546 E1.62273
G1 X117.582 Y136.363 E.02753
G1 X117.158 Y137.087 E.02631
G1 X116.627 Y137.736 E.02629
G1 X116.004 Y138.296 E.02627
G1 X115.301 Y138.753 E.02629
G1 X114.538 Y139.097 E.02624
G1 X113.728 Y139.319 E.02633
G1 X112.897 Y139.414 E.02623
G1 X112.059 Y139.38 E.0263
G1 X111.235 Y139.218 E.02633
G1 X110.449 Y138.931 E.02624
G1 X109.751 Y138.546 E.02499
G1 X109.475 Y138.341 E.01078
G1 X109.027 Y137.987 E.0179
G1 X108.459 Y137.38 E.02607
;WIDTH:0.464324
G1 X108.198 Y136.952 E.01757
;WIDTH:0.508648
G1 X107.447 Y135.724 E.05574
;WIDTH:0.464395
G1 X84.663 Y96.496 E1.58984
;WIDTH:0.464618
G1 X84.408 Y96.02 E.01893
G1 X84.191 Y95.549 E.01818
;WIDTH:0.460159
G1 X84.002 Y95.066 E.01799
;WIDTH:0.450874
G1 X83.852 Y94.569 E.01761
G1 X83.727 Y94.067 E.01755
;WIDTH:0.443808
G1 X83.645 Y93.552 E.01738
G1 X83.59 Y93.036 E.0173
;WIDTH:0.43929
G1 X83.573 Y92.517 E.01711
;WIDTH:0.441157
G1 X83.591 Y91.998 E.0172
G1 X83.639 Y91.48 E.01723
;WIDTH:0.446837
G1 X83.728 Y90.97 E.01739
G1 X83.842 Y90.465 E.01739
;WIDTH:0.455165
G1 X84 Y89.968 E.01788
;WIDTH:0.456045
G1 X84.183 Y89.483 E.01781
;WIDTH:0.465078
G1 X84.401 Y89.012 E.01822
;WIDTH:0.473319
G1 X84.648 Y88.558 E.0185
;WIDTH:0.477785
G1 X84.923 Y88.119 E.01873
;WIDTH:0.493428
G1 X85.232 Y87.701 E.01947
;WIDTH:0.493657
G1 X85.566 Y87.296 E.01967
;WIDTH:0.514081
G1 X85.921 Y86.931 E.01995
;WIDTH:0.521065
G1 X86.3 Y86.581 E.02051
;WIDTH:0.535625
G1 X86.706 Y86.258 E.02125
;WIDTH:0.550072
G1 X87.127 Y85.964 E.02165
;WIDTH:0.556835
G1 X87.567 Y85.695 E.02204
;WIDTH:0.578887
G1 X88.027 Y85.462 E.02298
;WIDTH:0.58889
G1 X88.815 Y85.117 E.03905
;WIDTH:0.546668
G1 X88.949 Y85.049 E.00629
;WIDTH:0.504445
G1 X89.082 Y84.982 E.00572
;WIDTH:0.462222
G1 X89.215 Y84.914 E.00521
;WIDTH:0.419999
G1 X89.948 Y84.726 E.02373
G1 X90.461 Y84.642 E.0163
G1 X90.979 Y84.591 E.01632
G1 X91.516 Y84.573 E.01685
G1 X106.482 Y84.573 E.46925
G1 X106.919 Y84.196 F9000
G1 F1200
G1 X106.919 Y85.822 E.05098
G1 X90.981 Y85.824 E.49972
G1 X90.003 Y85.903 E.03076
G1 X88.868 Y86.182 E.03665
G1 X87.964 Y86.568 E.03082
G1 X87.634 Y86.768 E.0121
G1 X86.895 Y87.264 E.02791
G1 X86.173 Y87.914 E.03046
G1 X85.584 Y88.639 E.02929
G1 X85.367 Y88.98 E.01267
G1 X84.934 Y89.781 E.02855
G1 X84.592 Y90.703 E.03083
G1 X84.405 Y91.628 E.02959
G1 X84.375 Y92.04 E.01295
G1 X84.367 Y92.957 E.02875
G1 X84.492 Y93.906 E.03001
G1 X84.765 Y94.84 E.03051
G1 X85.246 Y95.865 E.0355
G1 X108.157 Y135.312 E1.43031
G1 X108.743 Y136.108 E.03099
G1 X109.361 Y136.675 E.0263
G1 X110.258 Y137.213 E.0328
G1 X111.049 Y137.493 E.02631
G1 X111.552 Y137.574 E.01597
G1 X112.08 Y137.637 E.01667
G1 X112.8 Y137.591 E.02262
G1 X113.291 Y137.495 E.01569
G1 X113.93 Y137.31 E.02086
G1 X114.768 Y136.876 E.02959
G1 X115.415 Y136.365 E.02585
G1 X115.754 Y135.987 E.01592
G1 X116.101 Y135.559 E.01728
G1 X116.506 Y134.817 E.0265
G1 X116.685 Y134.337 E.01606
G1 X132.113 Y84.196 E1.64487
G1 X150.654 Y84.196 E.58134
G1 X149.571 Y87.716 E.11547
G1 X148.326 Y91.762 E.13273
G1 X148.065 Y92.387 E.02124
G1 X147.704 Y92.924 E.02029
G1 X147.245 Y93.38 E.02029
G1 X146.707 Y93.738 E.02026
G1 X146.109 Y93.985 E.02029
G1 X145.496 Y94.107 E.0196
G1 X145.039 Y94.118 E.01433
G1 X146.268 Y90.124 E.13102
G1 X146.286 Y89.872 E.00792
G1 X146.207 Y89.658 E.00715
G1 X146.077 Y89.513 E.00611
G1 X145.893 Y89.417 E.00651
G1 X134.192 Y85.816 E.38386
G1 X133.928 Y85.8 E.00829
G1 X133.622 Y85.961 E.01084
G1 X133.485 Y86.191 E.00839
G1 X118.26 Y135.671 E1.62319
G1 X117.922 Y136.529 E.02891
G1 X117.468 Y137.302 E.02811
G1 X116.901 Y137.997 E.02812
G1 X116.234 Y138.596 E.02811
G1 X115.483 Y139.085 E.0281
G1 X114.666 Y139.452 E.02808
G1 X113.8 Y139.691 E.02817
G1 X112.91 Y139.792 E.02808
G1 X112.014 Y139.756 E.02812
G1 X111.133 Y139.582 E.02816
G1 X110.292 Y139.275 E.02807
G1 X109.508 Y138.843 E.02807
G1 X108.798 Y138.294 E.02814
G1 X108.181 Y137.642 E.02815
G1 X107.659 Y136.884 E.02886
G1 X84.316 Y96.694 E1.45726
G1 X84.053 Y96.204 E.01744
G1 X83.827 Y95.708 E.01709
G1 X83.633 Y95.199 E.01708
G1 X83.474 Y94.678 E.01708
G1 X83.35 Y94.15 E.01701
G1 X83.259 Y93.61 E.01717
G1 X83.205 Y93.068 E.01708
G1 X83.186 Y92.524 E.01707
G1 X83.203 Y91.98 E.01707
G1 X83.256 Y91.437 E.01711
G1 X83.343 Y90.9 E.01706
G1 X83.466 Y90.371 E.01703
G1 X83.623 Y89.848 E.01712
G1 X83.815 Y89.338 E.01709
G1 X84.039 Y88.842 E.01706
G1 X84.294 Y88.362 E.01704
G1 X84.581 Y87.9 E.01705
G1 X84.899 Y87.455 E.01715
G1 X85.243 Y87.035 E.01702
G1 X85.615 Y86.637 E.01708
G1 X86.012 Y86.264 E.01708
G1 X86.434 Y85.917 E.01713
G1 X86.874 Y85.601 E.01699
G1 X87.337 Y85.313 E.0171
G1 X87.817 Y85.056 E.01707
G1 X88.315 Y84.83 E.01715
G1 X88.823 Y84.639 E.01702
G1 X89.344 Y84.48 E.01708
G1 X89.875 Y84.356 E.0171
G1 X90.412 Y84.268 E.01706
G1 X90.954 Y84.214 E.01708
G1 X91.51 Y84.196 E.01744
G1 X106.859 Y84.196 E.48126
G1 X107.296 Y83.819 F9000
;TYPE:External perimeter
G1 F1200
G1 X107.296 Y86.199 E.07462
G1 X91.012 Y86.199 E.51057
G1 X90.12 Y86.271 E.02806
G1 X89.018 Y86.528 E.03548
G1 X88.112 Y86.915 E.03089
G1 X87.145 Y87.546 E.0362
G1 X86.465 Y88.153 E.02858
G1 X85.876 Y88.877 E.02926
G1 X85.694 Y89.168 E.01076
G1 X85.286 Y89.915 E.02669
G1 X84.962 Y90.778 E.0289
G1 X84.775 Y91.702 E.02956
G1 X84.752 Y92.054 E.01106
G1 X84.741 Y92.911 E.02687
G1 X84.854 Y93.8 E.0281
G1 X85.127 Y94.734 E.03051
G1 X85.572 Y95.676 E.03267
G1 X108.483 Y135.123 E1.43031
G1 X108.998 Y135.83 E.02743
G1 X109.54 Y136.327 E.02306
G1 X109.99 Y136.626 E.01694
G1 X110.433 Y136.875 E.01593
G1 X111.211 Y137.146 E.02583
G1 X112.059 Y137.26 E.02683
G1 X112.776 Y137.215 E.02253
G1 X113.192 Y137.131 E.01331
G1 X113.761 Y136.973 E.01852
G1 X114.614 Y136.517 E.03033
G1 X115.22 Y136.034 E.0243
G1 X115.768 Y135.38 E.02675
G1 X116.144 Y134.695 E.0245
G1 X116.325 Y134.226 E.01576
G1 X131.835 Y83.819 E1.6536
G1 X151.165 Y83.819 E.60608
G1 X149.931 Y87.827 E.13149
G1 X148.681 Y91.89 E.13328
G1 X148.398 Y92.567 E.02301
G1 X147.996 Y93.165 E.02259
G1 X147.485 Y93.673 E.02259
G1 X146.885 Y94.073 E.02261
G1 X146.218 Y94.348 E.02262
G1 X145.51 Y94.488 E.02263
G1 X144.526 Y94.503 E.03086
G1 X145.907 Y90.013 E.14729
G1 X145.887 Y89.857 E.00493
G1 X145.783 Y89.777 E.00411
G1 X134.081 Y86.177 E.38388
G1 X133.976 Y86.175 E.00329
G1 X133.845 Y86.302 E.00572
G1 X118.616 Y135.796 E1.62365
G1 X118.262 Y136.694 E.03026
G1 X117.779 Y137.518 E.02995
G1 X117.175 Y138.258 E.02995
G1 X116.464 Y138.896 E.02995
G1 X115.664 Y139.417 E.02993
G1 X114.794 Y139.808 E.02991
G1 X113.872 Y140.062 E.02999
G1 X112.924 Y140.17 E.02992
G1 X111.97 Y140.132 E.02994
G1 X111.032 Y139.946 E.02998
G1 X110.136 Y139.619 E.02991
G1 X109.3 Y139.159 E.02992
G1 X108.544 Y138.574 E.02997
G1 X107.887 Y137.88 E.02996
G1 X107.34 Y137.086 E.03023
G1 X83.987 Y96.878 E1.4579
G1 X83.715 Y96.372 E.01801
G1 X83.478 Y95.854 E.01786
G1 X83.276 Y95.321 E.01787
G1 X83.11 Y94.776 E.01786
G1 X82.98 Y94.224 E.01778
G1 X82.885 Y93.66 E.01793
G1 X82.829 Y93.094 E.01783
G1 X82.809 Y92.524 E.01788
G1 X82.826 Y91.956 E.01782
G1 X82.881 Y91.388 E.01789
G1 X82.973 Y90.827 E.01782
G1 X83.101 Y90.274 E.0178
G1 X83.266 Y89.728 E.01788
G1 X83.466 Y89.194 E.01788
G1 X83.7 Y88.675 E.01785
G1 X83.967 Y88.174 E.0178
G1 X84.267 Y87.69 E.01785
G1 X84.599 Y87.226 E.01789
G1 X84.959 Y86.787 E.0178
G1 X85.348 Y86.371 E.01786
G1 X85.763 Y85.981 E.01786
G1 X86.204 Y85.618 E.01791
G1 X86.664 Y85.288 E.01775
G1 X87.148 Y84.987 E.01787
G1 X87.65 Y84.718 E.01786
G1 X88.17 Y84.482 E.0179
G1 X88.701 Y84.282 E.01779
G1 X89.246 Y84.116 E.01786
G1 X89.801 Y83.986 E.01787
G1 X90.363 Y83.894 E.01786
G1 X90.929 Y83.838 E.01783
G1 X91.504 Y83.819 E.01804
G1 X107.236 Y83.819 E.49326
G1 X105.645 Y84.694 F9000
;TYPE:Solid infill
;WIDTH:0.426769
G1 F1200
G1 X106.105 Y85.154 E.02076
G1 X105.562 Y85.154 E.01733
G1 X105.271 Y84.863 E.01314
G1 X104.729 Y84.863 E.0173
G1 X105.02 Y85.154 E.01314
G1 X104.477 Y85.154 E.01733
G1 X104.186 Y84.863 E.01314
G1 X103.643 Y84.863 E.01733
G1 X103.934 Y85.154 E.01314
G1 X103.391 Y85.154 E.01733
G1 X103.1 Y84.863 E.01314
G1 X102.557 Y84.863 E.01733
G1 X102.848 Y85.154 E.01314
G1 X102.305 Y85.154 E.01733
G1 X102.014 Y84.863 E.01314
G1 X101.471 Y84.863 E.01733
G1 X101.763 Y85.154 E.01316
G1 X101.22 Y85.154 E.01733
G1 X100.929 Y84.863 E.01314
G1 X100.386 Y84.863 E.01733
G1 X100.677 Y85.154 E.01314
G1 X100.134 Y85.154 E.01733
G1 X99.843 Y84.863 E.01314
G1 X99.3 Y84.863 E.01733
G1 X99.591 Y85.154 E.01314
G1 X99.048 Y85.154 E.01733
G1 X98.757 Y84.863 E.01314
G1 X98.214 Y84.863 E.01733
G1 X98.505 Y85.154 E.01314
G1 X97.963 Y85.154 E.0173
G1 X97.672 Y84.863 E.01314
G1 X97.129 Y84.863 E.01733
G1 X97.42 Y85.154 E.01314
G1 X96.877 Y85.154 E.01733
G1 X96.586 Y84.863 E.01314
G1 X96.043 Y84.863 E.01733
G1 X96.334 Y85.154 E.01314
G1 X95.791 Y85.154 E.01733
G1 X95.5 Y84.863 E.01314
G1 X94.957 Y84.863 E.01733
G1 X95.248 Y85.154 E.01314
G1 X94.706 Y85.154 E.0173
G1 X94.414 Y84.863 E.01316
G1 X93.872 Y84.863 E.0173
G1 X94.163 Y85.154 E.01314
G1 X93.62 Y85.154 E.01733
G1 X93.329 Y84.863 E.01314
G1 X92.786 Y84.863 E.01733
G1 X93.077 Y85.154 E.01314
G1 X92.534 Y85.154 E.01733
G1 X92.243 Y84.863 E.01314
G1 X91.7 Y84.863 E.01733
G1 X91.991 Y85.154 E.01314
G1 X91.449 Y85.154 E.0173
G1 X91.169 Y84.875 E.01262
G1 X90.998 Y84.88 E.00546
G1 X90.665 Y84.913 E.01068
G1 X90.913 Y85.162 E.01122
G1 X90.41 Y85.201 E.0161
G1 X90.189 Y84.981 E.00995
G1 X89.739 Y85.073 E.01466
G1 X89.911 Y85.245 E.00776
G1 X89.466 Y85.343 E.01454
G1 X89.194 Y85.071 E.01228
G1 E-3.5 F3600
;WIPE_START
G1 F7200
G1 X89.466 Y85.343 E-.18272
G1 X89.911 Y85.245 E-.21644
G1 X89.739 Y85.073 E-.11554
G1 X90.189 Y84.981 E-.21817
G1 X90.41 Y85.201 E-.14812
G1 X90.913 Y85.162 E-.23964
G1 X90.665 Y84.913 E-.16693
G1 X90.998 Y84.88 E-.15895
G1 X91.111 Y84.877 E-.05349
;WIPE_END
G1 X149.222 Y84.694 F9000
G1 E5 F2400
;WIDTH:0.421174
G1 F1200
G1 X149.666 Y85.138 E.01975
G1 X149.54 Y85.547 E.01346
G1 X148.857 Y84.863 E.0304
G1 X148.322 Y84.863 E.01683
G1 X149.414 Y85.956 E.04859
G1 X149.288 Y86.365 E.01346
G1 X147.787 Y84.863 E.06679
G1 X147.252 Y84.863 E.01683
G1 X149.162 Y86.774 E.08498
G1 X149.037 Y87.183 E.01345
G1 X146.717 Y84.863 E.10319
G1 X146.182 Y84.863 E.01683
G1 X148.911 Y87.592 E.12139
G1 X148.785 Y88.001 E.01346
G1 X145.647 Y84.863 E.13958
G1 X145.112 Y84.863 E.01683
G1 X148.659 Y88.41 E.15777
G1 X148.533 Y88.819 E.01346
G1 X144.577 Y84.863 E.17596
G1 X144.042 Y84.863 E.01683
G1 X148.407 Y89.228 E.19415
G1 X148.281 Y89.637 E.01346
G1 X143.507 Y84.863 E.21235
G1 X142.972 Y84.863 E.01683
G1 X148.156 Y90.046 E.23056
G1 X148.03 Y90.455 E.01346
G1 X142.438 Y84.863 E.24873
G1 X141.903 Y84.863 E.01683
G1 X145.698 Y88.658 E.1688
G1 X146.198 Y88.818 E.01651
G1 X146.492 Y88.989 E.0107
G1 X146.775 Y89.304 E.01332
G1 X146.949 Y89.773 E.01573
G1 X146.939 Y89.9 E.00401
G1 X147.904 Y90.864 E.0429
G1 X147.778 Y91.274 E.01349
G1 X146.887 Y90.382 E.03965
G1 X146.761 Y90.791 E.01346
G1 X147.641 Y91.671 E.03914
G1 X147.483 Y92.048 E.01286
G1 X146.635 Y91.2 E.03772
G1 X146.509 Y91.609 E.01346
G1 X147.271 Y92.371 E.03389
G1 X147.186 Y92.497 E.00478
