; generated by PrusaSlicer 2.9.1 on 2025-05-10 at 18:09:24 UTC

; 

; external perimeters extrusion width = 0.42mm
; perimeters extrusion width = 0.44mm
; infill extrusion width = 0.44mm
; solid infill extrusion width = 0.44mm
; top infill extrusion width = 0.40mm
; first layer extrusion width = 0.42mm

M201 X500 Y500 Z100 E5000 ; sets maximum accelerations, mm/sec^2
M203 X500 Y500 Z10 E60 ; sets maximum feedrates, mm / sec
M204 S500 T1000 ; sets acceleration (S) and retract acceleration (R), mm/sec^2
M205 X8.00 Y8.00 Z0.40 E5.00 ; sets the jerk limits, mm/sec
M205 S0 T0 ; sets the minimum extruding and travel feed rate, mm/sec

; printing object SCRAPPERV2.stl id:0 copy 0
; stop printing object SCRAPPERV2.stl id:0 copy 0

;TYPE:Custom
G90 ; use absolute coordinates
M83 ; extruder relative mode
M104 S150 ; set temporary nozzle temp to prevent oozing during homing
M140 S60 ; set final bed temp
G4 S30 ; allow partial nozzle warmup
G28 ; home all axis
G1 Z50 F240
G1 X2.0 Y10 F3000
M104 S210 ; set final nozzle temp
M190 S60 ; wait for bed temp to stabilize
M109 S210 ; wait for nozzle temp to stabilize
G1 Z0.28 F240
G92 E0
G1 X2.0 Y140 E10 F1500 ; prime the nozzle
G1 X2.3 Y140 F5000
G92 E0
G1 X2.3 Y10 E10 F1200 ; prime the nozzle
G92 E0
G21 ; set units to millimeters
G90 ; use absolute coordinates
M83 ; use relative distances for extrusion
; Filament gcode
M107
;LAYER_CHANGE
;Z:0.2
;HEIGHT:0.2
G1 E-5 F3600
G1 Z.2 F9000
G1 X54.515 Y103.17
G1 Z.2
G1 E5 F2400
M204 S500
;TYPE:Skirt/Brim
;WIDTH:0.42
G1 F1200
G1 X55.877 Y102.566 E.04672
G1 X57.077 Y102.202 E.03932
G1 X58.551 Y101.947 E.0469
G1 X178.896 Y87.335 E3.80104
G1 X180.467 Y87.541 E.04968
G1 X181.745 Y88.477 E.04967
G1 X182.469 Y90.5 E.06737
G1 X182.469 Y140.5 E1.56771
G1 X182.075 Y142.035 E.04969
G1 X180.991 Y143.191 E.04969
G1 X178.874 Y143.663 E.06801
G1 X57.614 Y128.061 E3.83336
G1 X56.024 Y127.633 E.05163
G1 X54.527 Y126.983 E.05117
G1 X53.128 Y126.113 E.05165
G1 X51.87 Y125.045 E.05174
G1 X51.025 Y124.114 E.03942
G1 X50.086 Y122.762 E.05161
G1 X49.36 Y121.297 E.05127
G1 X48.852 Y119.732 E.05159
G1 X48.642 Y118.637 E.03496
G1 X48.542 Y117.55 E.03423
G1 X48.549 Y112.446 E.16003
G1 X48.664 Y111.36 E.03424
G1 X48.886 Y110.279 E.0346
G1 X49.573 Y108.361 E.06388
G1 X50.084 Y107.389 E.03443
G1 X50.78 Y106.346 E.03932
G1 X51.483 Y105.502 E.03444
G1 X52.562 Y104.475 E.04671
G1 X53.439 Y103.815 E.03441
G1 X54.463 Y103.201 E.03744
G1 E-3.5 F3600
;WIPE_START
G1 F7200
G1 X54.515 Y103.17 E-.02876
G1 X55.877 Y102.566 E-.70771
G1 X57.077 Y102.202 E-.59565
G1 X57.425 Y102.142 E-.16788
;WIPE_END
; printing object SCRAPPERV2.stl id:0 copy 0
G1 X109.326 Y113.044 F9000
G1 E5 F2400
;TYPE:Perimeter
;WIDTH:0.419999
G1 F1200
G1 X109.439 Y112.944 E.00473
G1 X109.666 Y112.825 E.00804
G1 X109.988 Y112.768 E.01025
G1 X133.449 Y112.768 E.7356
G1 X133.901 Y112.883 E.01462
G1 X134.143 Y113.073 E.00965
G1 X134.333 Y113.382 E.01137
G1 X134.392 Y113.711 E.01048
G1 X134.392 Y116.954 E.10168
G1 X134.332 Y117.284 E.01052
G1 X134.204 Y117.518 E.00836
G1 X133.974 Y117.737 E.00996
;WIDTH:0.459313
G1 X133.8 Y117.81 E.00653
;WIDTH:0.498627
G1 X133.627 Y117.882 E.0071
;WIDTH:0.53794
G1 X133.453 Y117.955 E.00777
G1 X109.988 Y117.955 E.96584
;WIDTH:0.542709
G1 X109.903 Y117.954 E.00353
G1 X109.722 Y117.855 E.00857
;WIDTH:0.501806
G1 X109.541 Y117.756 E.00787
;WIDTH:0.460903
G1 X109.361 Y117.657 E.00714
;WIDTH:0.419999
G1 X109.166 Y117.415 E.00974
G1 X109.052 Y117.061 E.01166
G1 X109.046 Y113.711 E.10504
G1 X109.121 Y113.343 E.01178
G1 X109.286 Y113.088 E.00952
G1 X109.599 Y113.309 F9000
G1 F1200
G1 X109.795 Y113.179 E.00737
G1 X109.988 Y113.145 E.00614
G1 X133.449 Y113.145 E.7356
G1 X133.72 Y113.214 E.00877
G1 X133.931 Y113.414 E.00912
G1 X134.013 Y113.668 E.00837
G1 X134.015 Y116.954 E.10303
G1 X133.956 Y117.206 E.00811
G1 X133.764 Y117.424 E.00911
G1 X133.449 Y117.519 E.01032
G1 X109.988 Y117.519 E.7356
G1 X109.758 Y117.47 E.00737
G1 X109.535 Y117.292 E.00895
G1 X109.427 Y117.018 E.00923
G1 X109.423 Y113.711 E.10369
G1 X109.468 Y113.49 E.00707
G1 X109.558 Y113.351 E.00519
G1 X109.867 Y113.588 F9000
;TYPE:External perimeter
G1 F1200
G1 X109.924 Y113.533 E.00248
G1 X109.988 Y113.522 E.00204
G1 X133.449 Y113.522 E.7356
G1 X133.588 Y113.583 E.00476
G1 X133.638 Y113.711 E.00431
G1 X133.638 Y116.954 E.10168
G1 X133.6 Y117.066 E.00371
G1 X133.449 Y117.142 E.0053
G1 X109.988 Y117.142 E.7356
G1 X109.837 Y117.066 E.0053
G1 X109.8 Y116.954 E.0037
G1 X109.8 Y113.709 E.10174
G1 X109.815 Y113.637 E.00231
G1 X109.823 Y113.629 E.00035
G1 E-3.5 F3600
;WIPE_START
G1 F7200
G1 X109.867 Y113.588 E-.02857
G1 X109.924 Y113.533 E-.03762
G1 X109.988 Y113.522 E-.03085
G1 X112.942 Y113.522 E-1.40296
;WIPE_END
G1 X109.328 Y118.79 F9000
G1 E5 F2400
;TYPE:Perimeter
G1 F1200
G1 X109.363 Y118.751 E.00164
;WIDTH:0.460903
G1 X109.543 Y118.651 E.00716
;WIDTH:0.501806
G1 X109.724 Y118.552 E.00787
;WIDTH:0.542709
G1 X109.904 Y118.452 E.00856
G1 X109.993 Y118.45 E.0037
;WIDTH:0.53794
G1 X133.454 Y118.45 E.96568
G1 X133.628 Y118.522 E.00775
;WIDTH:0.498627
G1 X133.802 Y118.594 E.00714
;WIDTH:0.459313
G1 X133.976 Y118.666 E.00652
;WIDTH:0.419999
G1 X134.207 Y118.884 E.00996
G1 X134.368 Y119.221 E.01171
G1 X134.397 Y119.452 E.0073
G1 X134.397 Y122.695 E.10168
G1 X134.369 Y122.923 E.0072
G1 X134.245 Y123.208 E.00975
G1 X133.949 Y123.497 E.01297
G1 X133.454 Y123.637 E.01613
;WIDTH:0.445518
G1 X132.096 Y123.65 E.04546
G1 X131.739 Y123.636 E.01196
;WIDTH:0.41731
G1 X109.993 Y123.636 E.67697
;WIDTH:0.419999
G1 X109.428 Y123.449 E.01866
G1 X109.123 Y123.057 E.01557
G1 X109.051 Y122.695 E.01157
G1 X109.051 Y119.494 E.10036
G1 X109.074 Y119.241 E.00797
G1 X109.236 Y118.89 E.01212
G1 X109.288 Y118.834 E.0024
G1 X109.593 Y119.062 F9000
G1 F1200
G1 X109.615 Y119.031 E.00119
G1 X109.761 Y118.936 E.00546
G1 X109.993 Y118.886 E.00744
G1 X133.454 Y118.886 E.7356
G1 X133.767 Y118.981 E.01026
G1 X133.96 Y119.197 E.00908
G1 X134.02 Y119.452 E.00821
G1 X134.02 Y122.695 E.10168
G1 X133.929 Y123.003 E.01007
G1 X133.751 Y123.176 E.00778
G1 X133.454 Y123.26 E.00968
G1 X109.993 Y123.26 E.7356
G1 X109.654 Y123.147 E.0112
G1 X109.471 Y122.912 E.00934
G1 X109.428 Y122.695 E.00694
G1 X109.428 Y119.494 E.10036
G1 X109.472 Y119.232 E.00833
G1 X109.558 Y119.111 E.00465
G1 X109.879 Y119.321 F9000
;TYPE:External perimeter
G1 F1200
G1 X109.993 Y119.263 E.00401
G1 X133.454 Y119.263 E.7356
G1 X133.605 Y119.338 E.00529
G1 X133.643 Y119.452 E.00377
G1 X133.643 Y122.695 E.10168
G1 X133.612 Y122.797 E.00334
G1 X133.454 Y122.883 E.00564
G1 X109.993 Y122.883 E.7356
G1 X109.88 Y122.846 E.00373
G1 X109.805 Y122.695 E.00529
G1 X109.805 Y119.494 E.10036
G1 X109.838 Y119.358 E.00439
G1 E-3.5 F3600
;WIPE_START
G1 F7200
G1 X109.879 Y119.321 E-.02623
G1 X109.993 Y119.263 E-.06076
G1 X112.968 Y119.263 E-1.41301
;WIPE_END
G1 X109.31 Y111.352 F9000
G1 E5 F2400
;TYPE:Perimeter
G1 F1200
G1 X109.203 Y111.247 E.0047
G1 X109.091 Y111.042 E.00732
G1 X109.025 Y110.695 E.01107
G1 X109.025 Y107.452 E.10168
G1 X109.097 Y107.089 E.0116
G1 X109.402 Y106.698 E.01555
;WIDTH:0.425853
G1 X109.804 Y106.52 E.014
G1 X109.967 Y106.511 E.0052
;WIDTH:0.417302
G1 X131.738 Y106.511 E.67773
;WIDTH:0.423766
G1 X132.076 Y106.507 E.0107
G1 X133.428 Y106.509 E.04281
;WIDTH:0.419999
G1 X133.92 Y106.648 E.01603
G1 X134.217 Y106.935 E.01295
G1 X134.342 Y107.221 E.00979
G1 X134.371 Y107.452 E.0073
G1 X134.371 Y110.695 E.10168
G1 X134.316 Y111.011 E.01006
G1 X134.131 Y111.323 E.01137
G1 X133.892 Y111.516 E.00963
G1 X133.428 Y111.637 E.01503
G1 X109.967 Y111.637 E.7356
G1 X109.657 Y111.585 E.00986
G1 X109.429 Y111.469 E.00802
G1 X109.353 Y111.394 E.00335
G1 X109.578 Y111.098 F9000
G1 F1200
G1 X109.559 Y111.087 E.00069
G1 X109.441 Y110.903 E.00685
G1 X109.402 Y110.695 E.00664
G1 X109.402 Y107.452 E.10168
G1 X109.445 Y107.234 E.00697
G1 X109.628 Y106.999 E.00934
G1 X109.967 Y106.886 E.0112
G1 X132.076 Y106.886 E.69321
G1 X133.428 Y106.886 E.04239
G1 X133.724 Y106.969 E.00964
G1 X133.902 Y107.142 E.00778
G1 X133.994 Y107.452 E.01014
G1 X133.994 Y110.695 E.10168
G1 X133.945 Y110.925 E.00737
G1 X133.85 Y111.072 E.00549
G1 X133.706 Y111.187 E.00578
G1 X133.428 Y111.26 E.00901
G1 X109.967 Y111.26 E.7356
G1 X109.781 Y111.229 E.00591
G1 X109.628 Y111.131 E.0057
G1 X109.852 Y110.834 F9000
;TYPE:External perimeter
G1 F1200
G1 X109.831 Y110.825 E.00072
G1 X109.779 Y110.695 E.00439
G1 X109.779 Y107.452 E.10168
G1 X109.854 Y107.301 E.00529
G1 X109.967 Y107.263 E.00374
G1 X132.076 Y107.263 E.69321
G1 X133.428 Y107.263 E.04239
G1 X133.586 Y107.349 E.00564
G1 X133.617 Y107.452 E.00337
G1 X133.617 Y110.695 E.10168
G1 X133.569 Y110.82 E.0042
G1 X133.428 Y110.883 E.00484
G1 X109.967 Y110.883 E.7356
G1 X109.907 Y110.858 E.00204
G1 E-3.5 F3600
;WIPE_START
G1 F7200
G1 X109.852 Y110.834 E-.0285
G1 X109.831 Y110.825 E-.01085
G1 X109.779 Y110.695 E-.06651
G1 X109.779 Y107.76 E-1.39414
;WIPE_END
G1 X55.762 Y116.307 F9000
G1 E5 F2400
G1 F1200
G1 X55.629 Y115.302 E.03179
G1 X55.667 Y114.508 E.02492
G1 X55.796 Y113.601 E.02872
G1 X55.98 Y112.943 E.02142
G1 X56.17 Y112.456 E.01639
G1 X56.539 Y111.699 E.0264
G1 X56.909 Y111.125 E.02141
G1 X57.334 Y110.591 E.0214
G1 X57.686 Y110.229 E.01583
G1 X58.333 Y109.662 E.02697
G1 X58.896 Y109.276 E.0214
G1 X59.803 Y108.81 E.03197
G1 X60.337 Y108.614 E.01784
G1 X61.109 Y108.404 E.02509
G1 X61.784 Y108.301 E.02141
G1 X62.474 Y108.266 E.02166
G1 X99.071 Y108.266 E1.14747
G1 X99.742 Y108.3 E.02107
G1 X100.417 Y108.4 E.0214
G1 X101.079 Y108.568 E.02141
G1 X101.721 Y108.801 E.02141
G1 X102.337 Y109.096 E.02141
G1 X102.92 Y109.451 E.0214
G1 X103.465 Y109.863 E.02142
G1 X103.966 Y110.327 E.02141
G1 X104.418 Y110.838 E.02139
G1 X104.818 Y111.392 E.02142
G1 X105.135 Y111.939 E.01982
G1 X105.442 Y112.605 E.02299
G1 X105.66 Y113.252 E.02141
G1 X105.813 Y113.917 E.0214
G1 X105.899 Y114.595 E.02143
G1 X105.917 Y115.277 E.02139
G1 X105.867 Y115.958 E.02141
G1 X105.755 Y116.6 E.02043
G1 X105.565 Y117.288 E.02238
G1 X105.16 Y118.249 E.0327
G1 X104.828 Y118.824 E.02082
G1 X104.43 Y119.379 E.02141
G1 X103.738 Y120.127 E.03195
G1 X102.939 Y120.767 E.0321
G1 X102.053 Y121.281 E.03212
G1 X101.421 Y121.549 E.02152
G1 X100.768 Y121.751 E.02143
G1 X99.765 Y121.93 E.03195
G1 X99.071 Y121.965 E.02179
G1 X62.474 Y121.965 E1.14747
G1 X61.803 Y121.932 E.02106
G1 X61.202 Y121.843 E.01905
G1 X60.509 Y121.673 E.02237
G1 X59.876 Y121.43 E.02126
;WIDTH:0.423823
G1 X58.667 Y120.724 E.04434
;WIDTH:0.422284
G1 X58.112 Y120.347 E.02116
G1 X57.595 Y119.898 E.0216
;WIDTH:0.425841
G1 X57.243 Y119.514 E.01659
G1 X56.74 Y118.829 E.02706
;WIDTH:0.41645
G1 X56.735 Y118.82 E.00032
;WIDTH:0.420827
G1 X56.28 Y117.919 E.03172
G1 X55.954 Y117.002 E.03058
;WIDTH:0.419999
G1 X55.784 Y116.474 E.01739
G1 X55.77 Y116.367 E.00338
G1 X55.358 Y116.762 F9000
;WIDTH:0.421115
G1 F1200
G1 X55.433 Y116.845 E.00352
G1 X55.598 Y117.127 E.01027
;WIDTH:0.422134
G1 X55.911 Y118.02 E.02984
;WIDTH:0.431524
G1 X56.233 Y118.705 E.02446
G1 X56.638 Y119.359 E.02486
;WIDTH:0.426889
G1 X56.95 Y119.76 E.01622
;WIDTH:0.425841
G1 X57.293 Y120.133 E.01613
;WIDTH:0.422655
G1 X57.846 Y120.619 E.02325
;WIDTH:0.425305
G1 X58.292 Y120.935 E.01738
G1 X59.11 Y121.425 E.03032
;WIDTH:0.419999
G1 X59.48 Y121.769 E.01584
G1 X59.717 Y122.291 E.01797
G1 X59.764 Y122.684 E.01241
G1 X59.727 Y123.021 E.01063
G1 X59.623 Y123.344 E.01064
G1 X59.447 Y123.651 E.0111
G1 X59.076 Y124.023 E.01647
G1 X58.709 Y124.212 E.01294
;WIDTH:0.425144
G1 X58.219 Y124.293 E.01578
G1 X57.753 Y124.227 E.01496
;WIDTH:0.42536
G1 X57.244 Y124.045 E.01719
G1 X56.306 Y123.589 E.03317
;WIDTH:0.422964
G1 X55.66 Y123.169 E.02435
;WIDTH:0.433023
G1 X55.101 Y122.719 E.02328
;WIDTH:0.458731
G1 X54.345 Y121.945 E.03741
;WIDTH:0.462219
G1 X53.687 Y121.092 E.03756
;WIDTH:0.463645
G1 X53.326 Y120.484 E.02474
G1 X53.015 Y119.844 E.02489
;WIDTH:0.45831
G1 X52.766 Y119.181 E.02446
;WIDTH:0.450757
G1 X52.56 Y118.481 E.02474
;WIDTH:0.431385
G1 X52.469 Y117.828 E.0213
;WIDTH:0.422158
G1 X52.601 Y117.258 E.01845
;WIDTH:0.419999
G1 X52.921 Y116.762 E.01851
G1 X53.229 Y116.501 E.01266
G1 X53.707 Y116.283 E.01647
G1 X54.096 Y116.22 E.01236
G1 X54.471 Y116.246 E.01179
G1 X54.839 Y116.36 E.01208
G1 X55.236 Y116.626 E.01498
;WIDTH:0.421115
G1 X55.318 Y116.717 E.00385
G1 E-3.5 F3600
;WIPE_START
G1 F7200
G1 X55.358 Y116.762 E-.0286
G1 X55.433 Y116.845 E-.05314
G1 X55.598 Y117.127 E-.15519
G1 X55.911 Y118.02 E-.44948
G1 X56.233 Y118.705 E-.35953
G1 X56.638 Y119.359 E-.36539
G1 X56.753 Y119.506 E-.08867
;WIPE_END
G1 X131.885 Y124.027 F9000
G1 E5 F2400
;TYPE:Perimeter
;WIDTH:0.445518
G1 F1200
G1 X131.739 Y124.011 E.00492
;WIDTH:0.41731
G1 X109.993 Y124.011 E.67697
;WIDTH:0.419999
G1 X60.111 Y124.009 E1.56401
G1 X60.359 Y123.532 E.01686
G1 X60.492 Y122.984 E.01768
G1 X60.502 Y122.45 E.01675
G1 X61.26 Y122.614 E.02432
G1 X61.765 Y122.685 E.01599
G1 X62.474 Y122.72 E.02226
G1 X99.071 Y122.72 E1.14747
G1 X99.896 Y122.672 E.02591
G1 X100.991 Y122.472 E.0349
G1 X101.714 Y122.244 E.02377
G1 X102.43 Y121.934 E.02446
G1 X103.409 Y121.357 E.03563
G1 X104.291 Y120.64 E.03564
G1 X105.043 Y119.819 E.03491
G1 X105.481 Y119.201 E.02375
G1 X105.813 Y118.626 E.02082
G1 X105.982 Y118.243 E.01313
G1 X106.291 Y117.493 E.02543
G1 X106.497 Y116.731 E.02475
G1 X106.619 Y116.014 E.0228
G1 X106.671 Y115.258 E.02376
G1 X106.647 Y114.501 E.02375
G1 X106.548 Y113.749 E.02378
G1 X106.375 Y113.012 E.02374
G1 X106.129 Y112.295 E.02377
G1 X105.788 Y111.562 E.02535
G1 X105.43 Y110.952 E.02218
G1 X104.984 Y110.339 E.02377
G1 X104.479 Y109.774 E.02376
G1 X103.92 Y109.262 E.02377
G1 X103.313 Y108.808 E.02377
G1 X102.664 Y108.417 E.02376
G1 X101.979 Y108.092 E.02377
G1 X101.265 Y107.837 E.02377
G1 X100.53 Y107.655 E.02374
G1 X99.78 Y107.546 E.02376
G1 X99.071 Y107.512 E.02226
G1 X62.474 Y107.512 E1.14747
G1 X61.672 Y107.556 E.02518
G1 X60.923 Y107.673 E.02377
G1 X60.079 Y107.905 E.02744
G1 X59.459 Y108.139 E.02078
G1 X58.471 Y108.653 E.03492
G1 X57.848 Y109.084 E.02375
G1 X57.146 Y109.702 E.02932
G1 X56.744 Y110.121 E.01821
G1 X56.275 Y110.716 E.02375
G1 X55.868 Y111.355 E.02375
G1 X55.468 Y112.18 E.02875
G1 X55.254 Y112.739 E.01877
G1 X55.053 Y113.47 E.02377
G1 X54.925 Y114.24 E.02447
G1 X54.878 Y115.18 E.02951
G1 X54.902 Y115.585 E.01272
G1 X54.524 Y115.494 E.01219
G1 X53.938 Y115.476 E.01838
G1 X53.393 Y115.597 E.0175
G1 X52.793 Y115.893 E.02098
G1 X52.793 Y112.733 E.09908
G1 X52.86 Y112.056 E.02133
G1 X52.993 Y111.388 E.02136
G1 X53.19 Y110.737 E.02133
G1 X53.451 Y110.109 E.02132
G1 X53.766 Y109.518 E.021
G1 X54.367 Y108.665 E.03272
G1 X54.816 Y108.17 E.02095
G1 X55.32 Y107.713 E.02133
G1 X55.867 Y107.307 E.02136
G1 X56.452 Y106.957 E.02137
G1 X57.056 Y106.671 E.02095
G1 X58.035 Y106.348 E.03232
G1 X59.052 Y106.172 E.03236
G1 X59.745 Y106.137 E.02176
G1 X109.967 Y106.136 E1.57467
;WIDTH:0.417302
G1 X131.738 Y106.136 E.67773
;WIDTH:0.423766
G1 X132.015 Y106.098 E.00885
G1 X133.307 Y105.7 E.04281
;WIDTH:0.419999
G1 X178.216 Y91.939 E1.47271
G1 X178.216 Y115.286 E.73203
G1 X178.216 Y139.036 E.74466
G1 X133.322 Y124.474 E1.47982
;WIDTH:0.445518
G1 X132.034 Y124.043 E.04547
G1 X131.945 Y124.033 E.003
G1 X131.826 Y124.4 F9000
;WIDTH:0.419999
G1 F1200
G1 X131.739 Y124.386 E.00276
G1 X59.908 Y124.386 E2.25221
G1 X59.234 Y124.369 E.02114
G1 X59.343 Y124.289 E.00424
G1 X59.714 Y123.917 E.01647
G1 X59.954 Y123.525 E.01441
G1 X60.087 Y123.133 E.01298
G1 X60.131 Y122.811 E.01019
G1 X60.107 Y122.306 E.01585
G1 X59.94 Y121.861 E.0149
G1 X60.415 Y122.039 E.0159
G1 X61.146 Y122.215 E.02357
G1 X61.784 Y122.309 E.02022
G1 X62.474 Y122.343 E.02166
G1 X99.071 Y122.343 E1.14747
G1 X99.83 Y122.301 E.02383
G1 X100.88 Y122.112 E.03345
G1 X101.567 Y121.897 E.02257
G1 X102.242 Y121.607 E.02303
G1 X103.174 Y121.062 E.03385
G1 X104.014 Y120.384 E.03385
G1 X104.736 Y119.599 E.03344
G1 X105.155 Y119.013 E.02259
G1 X105.486 Y118.438 E.0208
G1 X105.928 Y117.391 E.03563
G1 X106.126 Y116.665 E.02359
G1 X106.243 Y115.986 E.0216
G1 X106.294 Y115.268 E.02257
G1 X106.273 Y114.548 E.02258
G1 X106.181 Y113.833 E.0226
G1 X106.018 Y113.132 E.02257
G1 X105.785 Y112.45 E.0226
G1 X105.461 Y111.751 E.02416
