; generated by PrusaSlicer 2.9.1 on 2025-05-11 at 11:42:27 UTC

; 

; external perimeters extrusion width = 0.42mm
; perimeters extrusion width = 0.44mm
; infill extrusion width = 0.44mm
; solid infill extrusion width = 0.44mm
; top infill extrusion width = 0.40mm
; support material extrusion width = 0.36mm
; first layer extrusion width = 0.42mm

M201 X500 Y500 Z100 E5000 ; sets maximum accelerations, mm/sec^2
M203 X500 Y500 Z10 E60 ; sets maximum feedrates, mm / sec
M204 S500 T1000 ; sets acceleration (S) and retract acceleration (R), mm/sec^2
M205 X8.00 Y8.00 Z0.40 E5.00 ; sets the jerk limits, mm/sec
M205 S0 T0 ; sets the minimum extruding and travel feed rate, mm/sec

; printing object scraper holder.stl id:0 copy 0
; stop printing object scraper holder.stl id:0 copy 0

;TYPE:Custom
G90 ; use absolute coordinates
M83 ; extruder relative mode
M104 S150 ; set temporary nozzle temp to prevent oozing during homing
M140 S60 ; set final bed temp
G4 S30 ; allow partial nozzle warmup
G28 ; home all axis
G1 Z50 F240
G1 X2.0 Y10 F3000
M104 S210 ; set final nozzle temp
M190 S60 ; wait for bed temp to stabilize
M109 S210 ; wait for nozzle temp to stabilize
G1 Z0.28 F240
G92 E0
G1 X2.0 Y140 E10 F1500 ; prime the nozzle
G1 X2.3 Y140 F5000
G92 E0
G1 X2.3 Y10 E10 F1200 ; prime the nozzle
G92 E0
G21 ; set units to millimeters
G90 ; use absolute coordinates
M83 ; use relative distances for extrusion
; Filament gcode
M107
;LAYER_CHANGE
;Z:0.2
;HEIGHT:0.2
G1 E-5 F3600
G1 Z.2 F9000
G1 X85.679 Y100.734
G1 Z.2
G1 E5 F2400
M204 S500
;TYPE:Skirt/Brim
;WIDTH:0.42
G1 F1200
G1 X99.152 Y91.152 E.51838
G1 X101 Y90.561 E.06083
G1 X140 Y90.561 E1.22282
G1 X141.535 Y90.955 E.04969
G1 X142.691 Y92.039 E.04969
G1 X143.189 Y93.75 E.05587
G1 X143.189 Y133.25 E1.23849
G1 X142.795 Y134.785 E.04969
G1 X142.255 Y135.505 E.02822
G1 X138.255 Y139.505 E.17737
G1 X136.891 Y140.312 E.04969
G1 X136 Y140.439 E.02822
G1 X105 Y140.439 E.97198
G1 X104.236 Y140.346 E.02413
G1 X86.763 Y136.032 E.5643
G1 X85.367 Y135.282 E.04969
G1 X84.505 Y133.952 E.04969
G1 X84.339 Y132.936 E.03228
G1 X84.339 Y103.332 E.92821
G1 X84.732 Y101.797 E.04968
G1 X85.639 Y100.778 E.04277
G1 E-3.5 F3600
;WIPE_START
G1 F7200
G1 X85.679 Y100.734 E-.02825
G1 X88.204 Y98.938 E-1.47175
;WIPE_END
; printing object scraper holder.stl id:0 copy 0
G1 X100.538 Y114.497 F9000
G1 E5 F2400
;TYPE:Support material
G1 F1200
G1 X96.058 Y114.497 E.14047
G1 X96.058 Y124.405 E.31066
G1 X100.538 Y124.405 E.14047
G1 X100.538 Y132.936 E.26748
G1 X87.527 Y132.936 E.40795
G1 X87.527 Y103.332 E.92821
G1 X100.538 Y103.332 E.40795
G1 X100.538 Y114.441 E.34831
G1 E-3.5 F3600
;WIPE_START
G1 F7200
G1 X100.538 Y111.283 E-1.5
;WIPE_END
G1 X99.998 Y132.767 F9000
G1 E5 F2400
G1 F1200
G1 X99.998 Y124.745 E.25152
G1 X99.579 Y124.745 E.01314
G1 X99.579 Y132.597 E.24619
G1 X99.16 Y132.597 E.01314
G1 X99.16 Y124.745 E.24619
G1 X98.741 Y124.745 E.01314
G1 X98.741 Y132.597 E.24619
G1 X98.322 Y132.597 E.01314
G1 X98.322 Y124.745 E.24619
G1 X97.903 Y124.745 E.01314
G1 X97.903 Y132.597 E.24619
G1 X97.484 Y132.597 E.01314
G1 X97.484 Y124.745 E.24619
G1 X97.065 Y124.745 E.01314
G1 X97.065 Y132.597 E.24619
G1 X96.646 Y132.597 E.01314
G1 X96.646 Y124.745 E.24619
G1 X96.227 Y124.745 E.01314
G1 X96.227 Y132.597 E.24619
G1 X95.808 Y132.597 E.01314
G1 X95.808 Y103.671 E.90695
G1 X96.227 Y103.671 E.01314
G1 X96.227 Y114.158 E.32881
G1 X96.646 Y114.158 E.01314
G1 X96.646 Y103.671 E.32881
G1 X97.065 Y103.671 E.01314
G1 X97.065 Y114.158 E.32881
G1 X97.484 Y114.158 E.01314
G1 X97.484 Y103.671 E.32881
G1 X97.903 Y103.671 E.01314
G1 X97.903 Y114.158 E.32881
G1 X98.322 Y114.158 E.01314
G1 X98.322 Y103.671 E.32881
G1 X98.741 Y103.671 E.01314
G1 X98.741 Y114.158 E.32881
G1 X99.16 Y114.158 E.01314
G1 X99.16 Y103.671 E.32881
G1 X99.579 Y103.671 E.01314
G1 X99.579 Y114.158 E.32881
G1 X99.998 Y114.158 E.01314
G1 X99.998 Y103.502 E.33411
G1 E-3.5 F3600
;WIPE_START
G1 F7200
G1 X99.998 Y106.66 E-1.5
;WIPE_END
G1 X95.389 Y132.767 F9000
G1 E5 F2400
G1 F1200
G1 X95.389 Y103.671 E.91228
G1 X94.97 Y103.671 E.01314
G1 X94.97 Y132.597 E.90695
G1 X94.551 Y132.597 E.01314
G1 X94.551 Y103.671 E.90695
G1 X94.132 Y103.671 E.01314
G1 X94.132 Y132.597 E.90695
G1 X93.713 Y132.597 E.01314
G1 X93.713 Y103.671 E.90695
G1 X93.294 Y103.671 E.01314
G1 X93.294 Y132.597 E.90695
G1 X92.875 Y132.597 E.01314
G1 X92.875 Y103.671 E.90695
G1 X92.456 Y103.671 E.01314
G1 X92.456 Y132.597 E.90695
G1 X92.037 Y132.597 E.01314
G1 X92.037 Y103.671 E.90695
G1 X91.618 Y103.671 E.01314
G1 X91.618 Y132.597 E.90695
G1 X91.199 Y132.597 E.01314
G1 X91.199 Y103.671 E.90695
G1 X90.78 Y103.671 E.01314
G1 X90.78 Y132.597 E.90695
G1 X90.361 Y132.597 E.01314
G1 X90.361 Y103.671 E.90695
G1 X89.942 Y103.671 E.01314
G1 X89.942 Y132.597 E.90695
G1 X89.523 Y132.597 E.01314
G1 X89.523 Y103.671 E.90695
G1 X89.104 Y103.671 E.01314
G1 X89.104 Y132.597 E.90695
G1 X88.685 Y132.597 E.01314
G1 X88.685 Y103.671 E.90695
G1 X88.266 Y103.671 E.01314
G1 X88.266 Y132.767 E.91228
G1 E-3.5 F3600
;WIPE_START
G1 F7200
G1 X88.266 Y129.609 E-1.5
;WIPE_END
G1 X102.064 Y94.814 F9000
G1 E5 F2400
;TYPE:Perimeter
;WIDTH:0.419999
G1 F1200
G1 X138.936 Y94.814 E1.15609
G1 X138.936 Y95.938 E.03524
G1 X138.936 Y132.81 E1.15609
G1 X137.064 Y134.687 E.08312
G1 X137.064 Y97.129 E1.1776
G1 X136.892 Y96.586 E.01786
G1 X136.58 Y96.305 E.01317
G1 X136.121 Y96.186 E.01487
G1 X104.879 Y96.186 E.97957
G1 X104.716 Y96.2 E.00513
G1 X104.42 Y96.305 E.00985
G1 X104.108 Y96.586 E.01317
G1 X103.936 Y97.129 E.01786
G1 X103.936 Y134.687 E1.1776
G1 X102.064 Y132.81 E.08312
G1 X102.064 Y94.874 E1.18945
G1 X101.687 Y94.437 F9000
G1 F1200
G1 X139.313 Y94.437 E1.17973
G1 X139.313 Y95.938 E.04706
G1 X139.313 Y132.966 E1.16098
G1 X137.265 Y135.019 E.09092
G1 X136.657 Y135.668 E.02788
G1 X136.687 Y134.75 E.0288
G1 X136.687 Y97.129 E1.17958
G1 X136.584 Y96.803 E.01072
G1 X136.396 Y96.634 E.00793
G1 X136.121 Y96.563 E.00891
G1 X104.879 Y96.563 E.97957
G1 X104.604 Y96.634 E.00891
G1 X104.416 Y96.803 E.00793
G1 X104.313 Y97.129 E.01072
G1 X104.313 Y134.75 E1.17958
G1 X104.343 Y135.668 E.0288
G1 X104.15 Y135.436 E.00946
G1 X101.687 Y132.966 E.10937
G1 X101.687 Y94.497 E1.20617
G1 X101.31 Y94.06 F9000
;TYPE:External perimeter
G1 F1200
G1 X139.69 Y94.06 E1.20338
G1 X139.69 Y95.938 E.05888
G1 X139.69 Y133.122 E1.16588
G1 X137.105 Y135.716 E.11482
G1 X136.551 Y136.393 E.02743
G1 X136.224 Y136.711 E.0143
G1 X136.212 Y136.246 E.01458
G1 X136.29 Y135.344 E.02839
G1 X136.31 Y134.75 E.01863
G1 X136.31 Y97.129 E1.17958
G1 X136.276 Y97.02 E.00358
G1 X136.121 Y96.94 E.00547
G1 X104.879 Y96.94 E.97957
G1 X104.724 Y97.02 E.00547
G1 X104.69 Y97.129 E.00358
G1 X104.69 Y134.75 E1.17958
G1 X104.712 Y135.409 E.02067
G1 X104.788 Y136.246 E.02635
G1 X104.776 Y136.711 E.01458
G1 X104.449 Y136.393 E.0143
G1 X103.883 Y135.702 E.02801
G1 X101.31 Y133.122 E.11425
G1 X101.31 Y94.12 E1.22288
G1 E-3.5 F3600
;WIPE_START
G1 F7200
G1 X101.31 Y94.06 E-.0285
G1 X104.408 Y94.06 E-1.4715
;WIPE_END
G1 X138.815 Y95.701 F9000
G1 E5 F2400
;TYPE:Solid infill
;WIDTH:0.422035
G1 F1200
G1 X138.218 Y95.105 E.02659
G1 X137.682 Y95.105 E.0169
G1 X138.645 Y96.068 E.04293
G1 X138.645 Y96.604 E.0169
G1 X137.146 Y95.105 E.06683
G1 X136.61 Y95.105 E.0169
G1 X138.645 Y97.14 E.09072
G1 X138.645 Y97.676 E.0169
G1 X136.074 Y95.105 E.11462
G1 X135.538 Y95.105 E.0169
G1 X136.397 Y95.963 E.03827
G1 X136.721 Y96.048 E.01056
G1 X137.135 Y96.42 E.01755
G1 X137.266 Y96.833 E.01366
G1 X138.645 Y98.212 E.06148
G1 X138.645 Y98.749 E.01693
G1 X137.355 Y97.458 E.05753
G1 X137.355 Y97.994 E.0169
G1 X138.645 Y99.285 E.05753
G1 X138.645 Y99.821 E.0169
G1 X137.354 Y98.53 E.05755
G1 X137.354 Y99.066 E.0169
G1 X138.645 Y100.357 E.05755
G1 X138.645 Y100.893 E.0169
G1 X137.354 Y99.602 E.05755
G1 X137.354 Y100.138 E.0169
G1 X138.645 Y101.429 E.05755
G1 X138.645 Y101.966 E.01693
G1 X137.354 Y100.675 E.05755
G1 X137.354 Y101.211 E.0169
G1 X138.645 Y102.502 E.05755
G1 X138.645 Y103.038 E.0169
G1 X137.354 Y101.747 E.05755
G1 X137.354 Y102.283 E.0169
G1 X138.645 Y103.574 E.05755
G1 X138.645 Y104.11 E.0169
G1 X137.354 Y102.819 E.05755
G1 X137.354 Y103.355 E.0169
G1 X138.645 Y104.646 E.05755
G1 X138.645 Y105.182 E.0169
G1 X137.354 Y103.891 E.05755
G1 X137.354 Y104.428 E.01693
G1 X138.645 Y105.719 E.05755
G1 X138.645 Y106.255 E.0169
G1 X137.354 Y104.964 E.05755
G1 X137.354 Y105.5 E.0169
G1 X138.645 Y106.791 E.05755
G1 X138.645 Y107.327 E.0169
G1 X137.354 Y106.036 E.05755
G1 X137.354 Y106.572 E.0169
G1 X138.645 Y107.863 E.05755
G1 X138.645 Y108.399 E.0169
G1 X137.354 Y107.108 E.05755
G1 X137.354 Y107.644 E.0169
G1 X138.645 Y108.935 E.05755
G1 X138.645 Y109.472 E.01693
G1 X137.354 Y108.181 E.05755
G1 X137.354 Y108.717 E.0169
G1 X138.645 Y110.008 E.05755
G1 X138.645 Y110.544 E.0169
G1 X137.354 Y109.253 E.05755
G1 X137.354 Y109.789 E.0169
G1 X138.645 Y111.08 E.05755
G1 X138.645 Y111.616 E.0169
G1 X137.354 Y110.325 E.05755
G1 X137.354 Y110.861 E.0169
G1 X138.645 Y112.152 E.05755
G1 X138.645 Y112.689 E.01693
G1 X137.354 Y111.397 E.05758
G1 X137.354 Y111.934 E.01693
G1 X138.645 Y113.225 E.05755
G1 X138.645 Y113.761 E.0169
G1 X137.354 Y112.47 E.05755
G1 X137.354 Y113.006 E.0169
G1 X138.645 Y114.297 E.05755
G1 X138.645 Y114.833 E.0169
G1 X137.354 Y113.542 E.05755
G1 X137.354 Y114.078 E.0169
G1 X138.645 Y115.369 E.05755
G1 X138.645 Y115.905 E.0169
G1 X137.354 Y114.614 E.05755
G1 X137.354 Y115.15 E.0169
G1 X138.645 Y116.442 E.05758
G1 X138.645 Y116.978 E.0169
G1 X137.354 Y115.687 E.05755
G1 X137.354 Y116.223 E.0169
G1 X138.645 Y117.514 E.05755
G1 X138.645 Y118.05 E.0169
G1 X137.354 Y116.759 E.05755
G1 X137.354 Y117.295 E.0169
G1 X138.645 Y118.586 E.05755
G1 X138.645 Y119.122 E.0169
G1 X137.354 Y117.831 E.05755
G1 X137.354 Y118.367 E.0169
G1 X138.645 Y119.658 E.05755
G1 X138.645 Y120.195 E.01693
G1 X137.354 Y118.903 E.05758
G1 X137.354 Y119.44 E.01693
G1 X138.645 Y120.731 E.05755
G1 X138.645 Y121.267 E.0169
G1 X137.354 Y119.976 E.05755
G1 X137.354 Y120.512 E.0169
G1 X138.645 Y121.803 E.05755
G1 X138.645 Y122.339 E.0169
G1 X137.354 Y121.048 E.05755
G1 X137.354 Y121.584 E.0169
G1 X138.645 Y122.875 E.05755
G1 X138.645 Y123.412 E.01693
G1 X137.354 Y122.12 E.05758
G1 X137.354 Y122.656 E.0169
G1 X138.645 Y123.948 E.05758
G1 X138.645 Y124.484 E.0169
G1 X137.354 Y123.193 E.05755
G1 X137.354 Y123.729 E.0169
G1 X138.645 Y125.02 E.05755
G1 X138.645 Y125.556 E.0169
G1 X137.354 Y124.265 E.05755
G1 X137.354 Y124.801 E.0169
G1 X138.645 Y126.092 E.05755
G1 X138.645 Y126.628 E.0169
G1 X137.354 Y125.337 E.05755
G1 X137.354 Y125.873 E.0169
G1 X138.645 Y127.165 E.05758
G1 X138.645 Y127.701 E.0169
G1 X137.354 Y126.409 E.05758
G1 X137.354 Y126.946 E.01693
G1 X138.645 Y128.237 E.05755
G1 X138.645 Y128.773 E.0169
G1 X137.354 Y127.482 E.05755
G1 X137.354 Y128.018 E.0169
G1 X138.645 Y129.309 E.05755
G1 X138.645 Y129.845 E.0169
G1 X137.354 Y128.554 E.05755
G1 X137.354 Y129.09 E.0169
G1 X138.645 Y130.381 E.05755
G1 X138.645 Y130.918 E.01693
G1 X137.354 Y129.626 E.05758
G1 X137.354 Y130.162 E.0169
G1 X138.645 Y131.454 E.05758
G1 X138.645 Y131.99 E.0169
G1 X137.354 Y130.699 E.05755
G1 X137.354 Y131.235 E.0169
G1 X138.645 Y132.526 E.05755
G1 X138.645 Y132.69 E.00517
G1 X138.46 Y132.876 E.00827
G1 X137.354 Y131.771 E.04928
G1 X137.354 Y132.307 E.0169
G1 X138.192 Y133.145 E.03736
G1 X137.924 Y133.413 E.01195
G1 X137.354 Y132.843 E.02541
G1 X137.354 Y133.379 E.0169
G1 X137.657 Y133.682 E.01351
G1 X137.389 Y133.95 E.01195
G1 X137.184 Y133.746 E.00912
G1 E-3.5 F3600
;WIPE_START
G1 F7200
G1 X137.389 Y133.95 E-.13737
G1 X137.657 Y133.682 E-.18003
G1 X137.354 Y133.379 E-.20354
G1 X137.354 Y132.843 E-.2546
G1 X137.924 Y133.413 E-.3829
G1 X138.192 Y133.145 E-.18003
G1 X137.952 Y132.905 E-.16153
;WIPE_END
G1 X135.962 Y96.065 F9000
G1 E5 F2400
G1 F1200
G1 X135.001 Y95.105 E.04282
G1 X134.465 Y95.105 E.0169
G1 X135.256 Y95.895 E.03524
G1 X134.72 Y95.895 E.0169
G1 X133.929 Y95.105 E.03524
G1 X133.393 Y95.105 E.0169
G1 X134.184 Y95.895 E.03524
G1 X133.648 Y95.895 E.0169
G1 X132.857 Y95.105 E.03524
G1 X132.321 Y95.105 E.0169
G1 X133.112 Y95.895 E.03524
G1 X132.575 Y95.895 E.01693
G1 X131.784 Y95.105 E.03524
G1 X131.248 Y95.105 E.0169
G1 X132.039 Y95.895 E.03524
G1 X131.503 Y95.895 E.0169
G1 X130.712 Y95.105 E.03524
G1 X130.176 Y95.105 E.0169
G1 X130.967 Y95.895 E.03524
G1 X130.431 Y95.895 E.0169
G1 X129.64 Y95.105 E.03524
G1 X129.104 Y95.105 E.0169
G1 X129.895 Y95.895 E.03524
G1 X129.359 Y95.895 E.0169
G1 X128.568 Y95.105 E.03524
G1 X128.031 Y95.105 E.01693
G1 X128.822 Y95.895 E.03524
G1 X128.286 Y95.895 E.0169
G1 X127.495 Y95.105 E.03524
G1 X126.959 Y95.105 E.0169
G1 X127.75 Y95.895 E.03524
G1 X127.214 Y95.895 E.0169
G1 X126.423 Y95.105 E.03524
G1 X125.887 Y95.105 E.0169
G1 X126.678 Y95.895 E.03524
G1 X126.142 Y95.895 E.0169
G1 X125.351 Y95.105 E.03524
G1 X124.815 Y95.105 E.0169
G1 X125.606 Y95.895 E.03524
G1 X125.069 Y95.895 E.01693
G1 X124.278 Y95.105 E.03524
G1 X123.742 Y95.105 E.0169
G1 X124.533 Y95.895 E.03524
G1 X123.997 Y95.895 E.0169
G1 X123.206 Y95.105 E.03524
G1 X122.67 Y95.105 E.0169
G1 X123.461 Y95.895 E.03524
G1 X122.925 Y95.895 E.0169
G1 X122.134 Y95.105 E.03524
G1 X121.598 Y95.105 E.0169
G1 X122.389 Y95.895 E.03524
G1 X121.852 Y95.895 E.01693
G1 X121.061 Y95.105 E.03524
G1 X120.525 Y95.105 E.0169
G1 X121.316 Y95.895 E.03524
G1 X120.78 Y95.895 E.0169
G1 X119.989 Y95.105 E.03524
G1 X119.453 Y95.105 E.0169
G1 X120.244 Y95.895 E.03524
G1 X119.708 Y95.895 E.0169
G1 X118.917 Y95.105 E.03524
G1 X118.381 Y95.105 E.0169
G1 X119.172 Y95.895 E.03524
G1 X118.636 Y95.895 E.0169
G1 X117.845 Y95.105 E.03524
G1 X117.308 Y95.105 E.01693
G1 X118.099 Y95.895 E.03524
G1 X117.563 Y95.895 E.0169
G1 X116.772 Y95.105 E.03524
G1 X116.236 Y95.105 E.0169
G1 X117.027 Y95.895 E.03524
G1 X116.491 Y95.895 E.0169
G1 X115.7 Y95.105 E.03524
G1 X115.164 Y95.105 E.0169
G1 X115.955 Y95.895 E.03524
G1 X115.419 Y95.895 E.0169
G1 X114.628 Y95.105 E.03524
G1 X114.092 Y95.105 E.0169
G1 X114.883 Y95.895 E.03524
G1 X114.346 Y95.895 E.01693
G1 X113.555 Y95.105 E.03524
G1 X113.019 Y95.105 E.0169
G1 X113.81 Y95.895 E.03524
G1 X113.274 Y95.895 E.0169
G1 X112.483 Y95.105 E.03524
G1 X111.947 Y95.105 E.0169
G1 X112.738 Y95.895 E.03524
G1 X112.202 Y95.895 E.0169
G1 X111.411 Y95.105 E.03524
G1 X110.875 Y95.105 E.0169
G1 X111.666 Y95.895 E.03524
G1 X111.129 Y95.895 E.01693
G1 X110.339 Y95.105 E.03522
G1 X109.802 Y95.105 E.01693
G1 X110.593 Y95.895 E.03524
G1 X110.057 Y95.895 E.0169
G1 X109.266 Y95.105 E.03524
G1 X108.73 Y95.105 E.0169
G1 X109.521 Y95.895 E.03524
G1 X108.985 Y95.895 E.0169
G1 X108.194 Y95.105 E.03524
G1 X107.658 Y95.105 E.0169
G1 X108.449 Y95.895 E.03524
G1 X107.913 Y95.895 E.0169
G1 X107.122 Y95.105 E.03524
G1 X106.585 Y95.105 E.01693
G1 X107.376 Y95.895 E.03524
G1 X106.84 Y95.895 E.0169
G1 X106.049 Y95.105 E.03524
G1 X105.513 Y95.105 E.0169
G1 X106.304 Y95.895 E.03524
G1 X105.768 Y95.895 E.0169
G1 X104.977 Y95.105 E.03524
G1 X104.441 Y95.105 E.0169
G1 X105.232 Y95.895 E.03524
G1 X104.71 Y95.91 E.01646
G1 X103.905 Y95.105 E.03589
G1 X103.369 Y95.105 E.0169
G1 X104.305 Y96.04 E.04171
G1 X104.014 Y96.286 E.01201
G1 X102.832 Y95.105 E.05267
G1 X102.355 Y95.105 E.01504
G1 X102.355 Y95.163 E.00183
G1 X103.804 Y96.612 E.0646
G1 X103.675 Y97.019 E.01346
G1 X102.355 Y95.699 E.05885
G1 X102.355 Y96.235 E.0169
G1 X103.645 Y97.526 E.05753
G1 X103.646 Y98.062 E.0169
G1 X102.355 Y96.771 E.05755
G1 X102.355 Y97.307 E.0169
G1 X103.646 Y98.598 E.05755
G1 X103.646 Y99.135 E.01693
G1 X102.355 Y97.844 E.05755
G1 X102.355 Y98.38 E.0169
G1 X103.646 Y99.671 E.05755
G1 X103.646 Y100.207 E.0169
G1 X102.355 Y98.916 E.05755
G1 X102.355 Y99.452 E.0169
G1 X103.646 Y100.743 E.05755
G1 X103.646 Y101.279 E.0169
G1 X102.355 Y99.988 E.05755
G1 X102.355 Y100.524 E.0169
G1 X103.646 Y101.815 E.05755
G1 X103.646 Y102.351 E.0169
G1 X102.355 Y101.06 E.05755
G1 X102.355 Y101.597 E.01693
G1 X103.646 Y102.888 E.05755
G1 X103.646 Y103.424 E.0169
G1 X102.355 Y102.133 E.05755
G1 X102.355 Y102.669 E.0169
G1 X103.646 Y103.96 E.05755
G1 X103.646 Y104.496 E.0169
G1 X102.355 Y103.205 E.05755
G1 X102.355 Y103.741 E.0169
G1 X103.646 Y105.032 E.05755
