; generated by PrusaSlicer 2.9.1 on 2025-05-11 at 08:10:46 UTC

; 

; external perimeters extrusion width = 0.42mm
; perimeters extrusion width = 0.44mm
; infill extrusion width = 0.44mm
; solid infill extrusion width = 0.44mm
; top infill extrusion width = 0.40mm
; support material extrusion width = 0.36mm
; first layer extrusion width = 0.42mm

; external perimeters extrusion width = 0.42mm
; perimeters extrusion width = 0.44mm
; infill extrusion width = 0.44mm
; solid infill extrusion width = 0.44mm
; top infill extrusion width = 0.40mm
; support material extrusion width = 0.36mm
; first layer extrusion width = 0.42mm

M201 X500 Y500 Z100 E5000 ; sets maximum accelerations, mm/sec^2
M203 X500 Y500 Z10 E60 ; sets maximum feedrates, mm / sec
M204 S500 T1000 ; sets acceleration (S) and retract acceleration (R), mm/sec^2
M205 X8.00 Y8.00 Z0.40 E5.00 ; sets the jerk limits, mm/sec
M205 S0 T0 ; sets the minimum extruding and travel feed rate, mm/sec

; printing object stretching-cat.stl id:0 copy 0
; stop printing object stretching-cat.stl id:0 copy 0
; printing object stretching-cat(1).stl id:1 copy 0
; stop printing object stretching-cat(1).stl id:1 copy 0

;TYPE:Custom
G90 ; use absolute coordinates
M83 ; extruder relative mode
M104 S150 ; set temporary nozzle temp to prevent oozing during homing
M140 S60 ; set final bed temp
G4 S30 ; allow partial nozzle warmup
G28 ; home all axis
G1 Z50 F240
G1 X2.0 Y10 F3000
M104 S210 ; set final nozzle temp
M190 S60 ; wait for bed temp to stabilize
M109 S210 ; wait for nozzle temp to stabilize
G1 Z0.28 F240
G92 E0
G1 X2.0 Y140 E10 F1500 ; prime the nozzle
G1 X2.3 Y140 F5000
G92 E0
G1 X2.3 Y10 E10 F1200 ; prime the nozzle
G92 E0
G21 ; set units to millimeters
G90 ; use absolute coordinates
M83 ; use relative distances for extrusion
; Filament gcode
M107
;LAYER_CHANGE
;Z:0.2
;HEIGHT:0.2
G1 E-5 F3600
G1 Z.2 F9000
G1 X102.474 Y84.846
G1 Z.2
G1 E5 F2400
M204 S500
;TYPE:Skirt/Brim
;WIDTH:0.42
G1 F1200
G1 X102.972 Y84.454 E.01987
G1 X103.566 Y84.125 E.02129
G1 X104.72 Y83.784 E.03773
G1 X106.953 Y83.643 E.07015
G1 X120.181 Y83.663 E.41476
G1 X122.469 Y83.846 E.07197
G1 X123.361 Y84.136 E.02941
G1 X124.144 Y84.573 E.02812
G1 X125.005 Y85.368 E.03674
G1 X125.626 Y86.252 E.03387
G1 X125.977 Y87.012 E.02625
G1 X126.242 Y88.093 E.0349
G1 X126.305 Y88.849 E.02379
G1 X126.896 Y130.422 E1.30362
G1 X126.799 Y131.925 E.04722
G1 X126.507 Y133.219 E.04159
G1 X125.966 Y134.387 E.04036
G1 X125.139 Y135.351 E.03982
G1 X124.651 Y135.714 E.01907
G1 X124.048 Y136.021 E.02122
G1 X122.693 Y136.37 E.04387
G1 X105.164 Y136.374 E.54961
G1 X104.236 Y136.283 E.02924
G1 X103.373 Y136.071 E.02786
G1 X102.33 Y135.567 E.03632
G1 X101.627 Y134.99 E.02852
G1 X101.099 Y134.311 E.02697
G1 X100.702 Y133.58 E.02608
G1 X100.446 Y132.833 E.02476
G1 X100.201 Y130.96 E.05923
G1 X100.843 Y88.774 E1.32287
G1 X100.954 Y87.739 E.03264
G1 X101.161 Y86.931 E.02615
G1 X101.652 Y85.858 E.037
G1 X102.436 Y84.893 E.03898
G1 E-3.5 F3600
;WIPE_START
G1 F7200
G1 X102.474 Y84.846 E-.02871
G1 X102.972 Y84.454 E-.30104
G1 X103.566 Y84.125 E-.32254
G1 X104.72 Y83.784 E-.57158
G1 X105.3 Y83.747 E-.27613
;WIPE_END
; printing object stretching-cat.stl id:0 copy 0
G1 X115.524 Y115.611 F9000
G1 E5 F2400
;TYPE:External perimeter
;WIDTH:0.38292
G1 F1200
G1 X115.46 Y115.648 E.00209
G1 X115.524 Y115.685 E.00209
G1 X115.545 Y115.648 E.0012
G1 X115.733 Y115.024 F9000
G1 F1200
G1 X115.745 Y114.641 E.01083
G1 X115.271 Y115.06 F9000
G1 F1200
G1 X115.262 Y114.649 E.01162
G1 E-3.5 F3600
;WIPE_START
G1 F7200
G1 X115.271 Y115.06 E-.19527
;WIPE_END
G1 E-1.30473 F3600
; stop printing object stretching-cat.stl id:0 copy 0
; printing object stretching-cat(1).stl id:1 copy 0
G1 X106.487 Y129.512 F9000
G1 E5 F2400
;TYPE:Perimeter
;WIDTH:0.419999
G1 F1200
G1 X106.697 Y129.443 E.00693
G1 X106.816 Y129.348 E.00477
G1 X106.955 Y129.17 E.00708
G1 X106.993 Y129.204 E.0016
G1 X107.386 Y129.35 E.01315
G1 X107.281 Y129.927 E.01839
G1 X106.881 Y130.774 E.02937
G1 X106.534 Y131.254 E.01857
G1 X106.145 Y131.646 E.01732
G1 X105.67 Y131.853 E.01625
G1 X105.299 Y131.926 E.01186
G1 X104.826 Y131.884 E.01489
G1 X104.706 Y131.513 E.01223
G1 X104.624 Y130.929 E.01849
G1 X104.595 Y130.035 E.02805
G1 X104.631 Y129.522 E.01612
G1 X104.981 Y129.513 E.01098
G1 X105.335 Y129.327 E.01254
G1 X105.49 Y129.456 E.00632
G1 X105.848 Y129.596 E.01205
G1 X106.21 Y129.603 E.01135
G1 X106.43 Y129.531 E.00726
G1 X106.103 Y129.226 F9000
G1 F1200
G1 X106.186 Y129.227 E.0026
G1 X106.486 Y129.13 E.00989
G1 X106.627 Y128.994 E.00614
G1 X106.842 Y128.432 E.01887
G1 X107.04 Y128.734 E.01132
G1 X107.198 Y128.887 E.0069
G1 X107.393 Y128.966 E.0066
G1 X107.724 Y129.003 E.01044
G1 X107.764 Y129.158 E.00502
G1 X107.747 Y129.478 E.01005
G1 X107.627 Y130.077 E.01915
G1 X107.198 Y130.98 E.03135
G1 X106.774 Y131.565 E.02265
G1 X106.359 Y131.956 E.01788
G1 X105.808 Y132.204 E.01895
G1 X105.23 Y132.317 E.01847
G1 X104.7 Y132.248 E.01676
G1 X104.528 Y132.133 E.00649
G1 X104.378 Y131.784 E.01191
G1 X104.287 Y131.291 E.01572
G1 X104.239 Y130.685 E.01906
G1 X104.22 Y129.948 E.02312
G1 X104.295 Y129.293 E.02067
G1 X104.405 Y129.096 E.00707
G1 X104.577 Y129.146 E.00562
G1 X104.883 Y129.149 E.00959
G1 X104.995 Y129.105 E.00377
G1 X105.422 Y128.76 E.01721
G1 X105.496 Y128.913 E.00533
G1 X105.696 Y129.14 E.00949
G1 X105.911 Y129.224 E.00724
G1 X106.043 Y129.226 E.00414
G1 X106.091 Y128.842 F9000
;TYPE:External perimeter
G1 F1200
G1 X106.174 Y128.85 E.00261
G1 X106.298 Y128.799 E.0042
G1 X106.654 Y127.945 E.02901
G1 X106.758 Y127.896 E.0036
G1 X106.895 Y127.888 E.0043
G1 X107.077 Y128.06 E.00785
G1 X107.161 Y128.235 E.00609
G1 X107.403 Y128.57 E.01296
G1 X107.595 Y128.622 E.00624
G1 X107.895 Y128.585 E.00948
G1 X108.055 Y128.817 E.00884
G1 X108.14 Y129.135 E.01032
G1 X108.153 Y129.334 E.00625
G1 X108.03 Y130.095 E.02417
G1 X107.72 Y130.811 E.02446
G1 X107.515 Y131.185 E.01337
G1 X107.144 Y131.696 E.0198
G1 X106.819 Y132.055 E.01518
G1 X106.433 Y132.364 E.0155
G1 X105.784 Y132.618 E.02185
G1 X105.407 Y132.672 E.01194
G1 X105.058 Y132.675 E.01094
G1 X104.53 Y132.59 E.01677
G1 X104.227 Y132.374 E.01167
G1 X104.089 Y132.093 E.00982
G1 X103.932 Y131.505 E.01908
G1 X103.871 Y130.985 E.01642
G1 X103.839 Y129.989 E.03124
G1 X103.884 Y129.395 E.01868
G1 X103.973 Y129.067 E.01066
G1 X104.087 Y128.882 E.00681
G1 X104.335 Y128.683 E.00997
G1 X104.696 Y128.787 E.01178
G1 X104.857 Y128.746 E.00521
G1 X105.328 Y128.344 E.01942
G1 X105.551 Y128.238 E.00774
G1 X105.597 Y128.255 E.00154
G1 X105.902 Y128.824 E.02024
G1 X106.032 Y128.837 E.0041
G1 X106.57 Y129.617 F9000
;TYPE:Solid infill
;WIDTH:0.462826
G1 F1200
G1 X106.939 Y129.986 E.01822
G1 X106.759 Y130.4 E.01576
G1 X106.246 Y129.887 E.02533
G1 X106.038 Y129.899 E.00727
G1 X105.798 Y129.883 E.0084
G1 X105.578 Y129.813 E.00806
G1 X106.53 Y130.764 E.04698
G1 X106.28 Y131.109 E.01488
G1 X104.969 Y129.798 E.06473
G1 X104.901 Y129.8 E.00238
G1 X104.885 Y130.012 E.00742
G1 X104.894 Y130.317 E.01065
G1 X105.983 Y131.405 E.05375
G1 X105.939 Y131.436 E.00188
G1 X105.566 Y131.582 E.01399
G1 X104.739 Y130.755 E.04084
G1 E-3.5 F3600
;WIPE_START
G1 F7200
G1 X105.566 Y131.582 E-.55554
G1 X105.939 Y131.436 E-.19026
G1 X105.983 Y131.405 E-.02557
G1 X104.898 Y130.321 E-.72863
;WIPE_END
G1 X119.783 Y129.133 F9000
G1 E5 F2400
;TYPE:Perimeter
;WIDTH:0.419999
G1 F1200
G1 X119.972 Y129.047 E.00651
G1 X120.236 Y128.771 E.01198
G1 X120.399 Y128.9 E.00652
G1 X120.696 Y129.068 E.0107
G1 X121.074 Y129.116 E.01195
G1 X121.465 Y129.002 E.01277
G1 X121.785 Y129.315 E.01403
G1 X122.177 Y129.478 E.01331
G1 X122.488 Y129.491 E.00976
G1 X122.542 Y129.908 E.01318
G1 X122.538 Y130.598 E.02163
G1 X122.469 Y131.213 E.0194
G1 X122.273 Y131.879 E.02177
G1 X121.972 Y131.921 E.00953
G1 X121.46 Y131.8 E.0165
G1 X121.173 Y131.66 E.01001
G1 X120.641 Y131.211 E.02183
G1 X120.295 Y130.846 E.01577
G1 X119.937 Y130.288 E.02079
G1 X119.78 Y129.862 E.01424
G1 X119.679 Y129.18 E.02162
G1 X119.729 Y129.157 E.00173
G1 X119.729 Y128.74 F9000
G1 F1200
G1 X119.799 Y128.705 E.00245
G1 X120.045 Y128.366 E.01313
G1 X120.266 Y128.167 E.00932
G1 X120.494 Y128.488 E.01235
G1 X120.819 Y128.711 E.01236
G1 X121.046 Y128.74 E.00718
G1 X121.385 Y128.624 E.01123
G1 X121.577 Y128.611 E.00603
G1 X122.083 Y129.055 E.02111
G1 X122.394 Y129.126 E.01
G1 X122.751 Y129.073 E.01132
G1 X122.838 Y129.267 E.00667
G1 X122.919 Y129.908 E.02026
G1 X122.92 Y130.565 E.0206
G1 X122.864 Y131.189 E.01964
G1 X122.742 Y131.676 E.01574
G1 X122.579 Y132.12 E.01483
G1 X122.477 Y132.203 E.00412
G1 X121.988 Y132.299 E.01562
G1 X121.727 Y132.266 E.00825
G1 X121.168 Y132.092 E.01836
G1 X120.658 Y131.751 E.01924
G1 X120.188 Y131.298 E.02047
G1 X119.846 Y130.878 E.01698
G1 X119.606 Y130.469 E.01487
G1 X119.427 Y130.02 E.01516
G1 X119.303 Y129.373 E.02066
G1 X119.329 Y128.886 E.01529
G1 X119.564 Y128.822 E.00764
G1 X119.676 Y128.767 E.00391
G1 X119.529 Y128.431 F9000
;TYPE:External perimeter
G1 F1200
G1 X119.544 Y128.426 E.0005
G1 X119.789 Y128.063 E.01373
G1 X120.102 Y127.815 E.01252
G1 X120.29 Y127.773 E.00604
G1 X120.439 Y127.784 E.00468
G1 X120.697 Y128.145 E.01391
G1 X120.882 Y128.321 E.00801
G1 X120.994 Y128.365 E.00377
G1 X121.336 Y128.232 E.01151
G1 X121.577 Y128.229 E.00756
G1 X121.865 Y128.326 E.00953
G1 X122.212 Y128.693 E.01584
G1 X122.441 Y128.752 E.00741
G1 X122.75 Y128.682 E.00993
G1 X122.928 Y128.687 E.00558
G1 X123.04 Y128.811 E.00524
G1 X123.212 Y129.216 E.0138
G1 X123.296 Y129.907 E.02183
G1 X123.272 Y130.859 E.02986
G1 X123.201 Y131.396 E.01698
G1 X123.026 Y132.037 E.02083
G1 X122.814 Y132.44 E.01428
G1 X122.549 Y132.601 E.00972
G1 X122.225 Y132.647 E.01026
G1 X121.751 Y132.664 E.01487
G1 X121.257 Y132.526 E.01608
G1 X120.864 Y132.368 E.01328
G1 X120.415 Y132.04 E.01743
G1 X119.926 Y131.57 E.02127
G1 X119.546 Y131.106 E.0188
G1 X119.275 Y130.65 E.01663
G1 X119.062 Y130.122 E.01785
G1 X118.942 Y129.494 E.02005
G1 X118.923 Y128.92 E.01801
G1 X119.046 Y128.602 E.01069
G1 X119.472 Y128.452 E.01416
G1 X121.197 Y129.216 F9000
;TYPE:Solid infill
;WIDTH:0.422655
G1 F1200
G1 X122.252 Y130.271 E.04711
G1 X122.23 Y130.786 E.01628
G1 X120.834 Y129.39 E.06234
G1 X120.756 Y129.385 E.00247
G1 X120.431 Y129.269 E.0109
G1 X120.275 Y129.166 E.0059
G1 X120.167 Y129.26 E.00452
G1 X122.157 Y131.251 E.08888
G1 X122.062 Y131.612 E.01179
G1 X121.988 Y131.618 E.00234
G1 X120.04 Y129.67 E.08699
G1 X120.072 Y129.841 E.00549
G1 X120.173 Y130.115 E.00922
G1 X120.348 Y130.435 E.01152
G1 X120.6 Y130.768 E.01319
G1 X121.525 Y131.693 E.0413
G1 E-3.5 F3600
;WIPE_START
G1 F7200
G1 X120.6 Y130.768 E-.62137
G1 X120.348 Y130.435 E-.19836
G1 X120.173 Y130.115 E-.17324
G1 X120.072 Y129.841 E-.13871
G1 X120.04 Y129.67 E-.08263
G1 X120.465 Y130.095 E-.28569
;WIPE_END
G1 X119.367 Y94.671 F9000
G1 E5 F2400
;TYPE:Perimeter
;WIDTH:0.419999
G1 F1200
G1 X119.154 Y94.396 E.01091
G1 X118.93 Y93.942 E.01587
G1 X118.717 Y93.297 E.0213
G1 X117.891 Y91.082 E.07412
G1 X117.622 Y90.231 E.02798
G1 X117.506 Y89.359 E.02758
G1 X117.506 Y88.895 E.01455
G1 X117.565 Y88.585 E.00989
G1 X117.709 Y88.385 E.00773
G1 X117.986 Y88.192 E.01059
G1 X118.255 Y88.151 E.00853
G1 X118.673 Y88.285 E.01376
G1 X119.056 Y88.343 E.01215
G1 X119.312 Y88.293 E.00818
G1 X119.779 Y88.089 E.01598
G1 X120.041 Y88.037 E.00838
G1 X120.129 Y88.124 E.00388
G1 X120.436 Y88.346 E.01188
G1 X120.835 Y88.43 E.01278
G1 X121.143 Y88.376 E.0098
G1 X121.562 Y88.13 E.01523
G1 X121.765 Y88.326 E.00885
G1 X121.918 Y88.566 E.00892
G1 X121.969 Y88.991 E.01342
G1 X121.906 Y89.697 E.02222
G1 X121.691 Y90.657 E.03085
G1 X121.503 Y91.155 E.01669
G1 X121.235 Y91.63 E.0171
G1 X120.605 Y92.497 E.0336
G1 X120.224 Y93.251 E.02649
G1 X119.966 Y93.69 E.01597
G1 X119.531 Y94.564 E.03061
G1 X119.404 Y94.699 E.00581
G1 X119.507 Y95.073 F9000
G1 F1200
G1 X119.468 Y95.096 E.00142
G1 X119.266 Y95.101 E.00634
G1 X119.138 Y94.991 E.00529
G1 X118.818 Y94.567 E.01666
G1 X118.572 Y94.06 E.01767
G1 X118.363 Y93.429 E.02084
G1 X117.534 Y91.204 E.07445
G1 X117.253 Y90.313 E.02929
G1 X117.132 Y89.409 E.0286
G1 X117.124 Y89.063 E.01085
G1 X117.176 Y88.588 E.01498
G1 X117.292 Y88.308 E.0095
G1 X117.579 Y87.985 E.01355
G1 X117.851 Y87.836 E.00972
G1 X118.302 Y87.771 E.01429
G1 X119.035 Y87.967 E.02379
G1 X119.233 Y87.919 E.00639
G1 X119.778 Y87.677 E.0187
G1 X120.178 Y87.65 E.01257
G1 X120.55 Y87.981 E.01561
G1 X120.832 Y88.053 E.00913
G1 X121.017 Y88.02 E.00589
G1 X121.451 Y87.751 E.01601
G1 X121.627 Y87.756 E.00552
G1 X121.811 Y87.84 E.00634
G1 X122.048 Y88.077 E.01051
G1 X122.282 Y88.449 E.01378
G1 X122.346 Y89.011 E.01773
G1 X122.264 Y89.825 E.02565
G1 X121.987 Y90.953 E.03642
G1 X121.775 Y91.459 E.0172
G1 X121.537 Y91.855 E.01449
G1 X120.942 Y92.666 E.03154
G1 X120.571 Y93.405 E.02593
G1 X120.303 Y93.858 E.0165
G1 X119.869 Y94.732 E.0306
G1 X119.7 Y94.961 E.00892
G1 X119.559 Y95.043 E.00511
G1 X119.661 Y95.41 F9000
;TYPE:External perimeter
G1 F1200
G1 X119.406 Y95.507 E.00855
G1 X119.125 Y95.46 E.00893
G1 X119.011 Y95.385 E.00428
G1 X118.843 Y95.226 E.00725
G1 X118.481 Y94.737 E.01908
G1 X118.214 Y94.178 E.01942
G1 X118.01 Y93.561 E.02038
G1 X117.178 Y91.327 E.07475
G1 X116.883 Y90.395 E.03065
G1 X116.758 Y89.459 E.02961
G1 X116.752 Y88.874 E.01834
G1 X116.86 Y88.292 E.01856
G1 X117.06 Y87.965 E.01202
G1 X117.352 Y87.679 E.01282
G1 X117.716 Y87.48 E.01301
G1 X118.043 Y87.406 E.01051
G1 X118.423 Y87.408 E.01191
G1 X118.937 Y87.578 E.01697
G1 X119.08 Y87.574 E.00449
G1 X119.685 Y87.306 E.02075
G1 X120.153 Y87.273 E.01471
G1 X120.386 Y87.319 E.00745
G1 X120.734 Y87.652 E.0151
G1 X120.89 Y87.665 E.00491
G1 X121.332 Y87.376 E.01656
G1 X121.442 Y87.362 E.00348
G1 X121.828 Y87.41 E.0122
G1 X122.119 Y87.585 E.01065
G1 X122.372 Y87.875 E.01207
G1 X122.645 Y88.331 E.01666
G1 X122.722 Y89.031 E.02208
G1 X122.649 Y89.829 E.02513
G1 X122.45 Y90.718 E.02856
G1 X122.305 Y91.187 E.01539
G1 X122.102 Y91.649 E.01582
G1 X121.839 Y92.081 E.01586
G1 X121.279 Y92.835 E.02945
G1 X120.902 Y93.586 E.02635
G1 X120.641 Y94.026 E.01604
G1 X120.206 Y94.9 E.03061
G1 X119.957 Y95.244 E.01331
G1 X119.754 Y95.375 E.00758
G1 X119.718 Y95.389 E.00121
G1 E-3.5 F3600
;WIPE_START
G1 F7200
G1 X119.661 Y95.41 E-.02885
G1 X119.406 Y95.507 E-.12959
G1 X119.125 Y95.46 E-.13533
G1 X119.011 Y95.385 E-.06482
G1 X118.843 Y95.226 E-.10987
G1 X118.481 Y94.737 E-.289
G1 X118.214 Y94.178 E-.29426
G1 X118.01 Y93.561 E-.30868
G1 X117.907 Y93.286 E-.1396
;WIPE_END
G1 X121.831 Y89.32 F9000
G1 E5 F2400
;TYPE:Solid infill
;WIDTH:0.421021
G1 F1200
G1 X121.176 Y88.665 E.02912
G1 X120.996 Y88.709 E.00583
G1 X120.832 Y88.721 E.00517
G1 X120.67 Y88.694 E.00516
G1 X121.62 Y89.644 E.04224
G1 X121.522 Y90.081 E.01408
G1 X119.826 Y88.385 E.07541
G1 X119.454 Y88.547 E.01276
G1 X121.424 Y90.518 E.08761
G1 X121.292 Y90.92 E.0133
G1 X118.998 Y88.626 E.102
G1 X118.659 Y88.586 E.01073
G1 X118.287 Y88.45 E.01245
G1 X121.119 Y91.282 E.12592
G1 X120.898 Y91.595 E.01205
G1 X117.904 Y88.601 E.13312
G1 X117.836 Y88.698 E.00372
G1 X117.798 Y88.855 E.00508
G1 X117.793 Y89.025 E.00535
G1 X120.669 Y91.901 E.12787
G1 X120.442 Y92.209 E.01203
G1 X117.83 Y89.597 E.11613
G1 X117.926 Y90.227 E.02004
G1 X120.252 Y92.553 E.10342
G1 X120.073 Y92.91 E.01256
G1 X118.175 Y91.011 E.08441
G1 X118.492 Y91.863 E.02858
G1 X119.885 Y93.256 E.06194
G1 X119.689 Y93.595 E.01231
G1 X118.81 Y92.715 E.0391
G1 X119.104 Y93.545 E.02768
G1 X119.638 Y94.078 E.02372
G1 E-3.5 F3600
;WIPE_START
G1 F7200
G1 X119.104 Y93.545 E-.35838
G1 X118.81 Y92.715 E-.41825
G1 X119.689 Y93.595 E-.59081
G1 X119.828 Y93.353 E-.13256
;WIPE_END
G1 X109.534 Y88.7 F9000
G1 E5 F2400
;TYPE:Perimeter
;WIDTH:0.419999
G1 F1200
G1 X109.6 Y88.929 E.00747
G1 X109.621 Y89.276 E.0109
G1 X109.529 Y89.973 E.02204
G1 X109.177 Y91.201 E.04005
G1 X108.308 Y93.757 E.08465
G1 X107.951 Y94.496 E.02573
G1 X107.739 Y94.675 E.0087
G1 X107.483 Y94.343 E.01314
G1 X106.831 Y93.644 E.02997
G1 X106.513 Y93.205 E.017
G1 X106.223 Y92.678 E.01886
G1 X105.869 Y91.888 E.02714
G1 X105.548 Y90.896 E.03269
G1 X105.295 Y89.877 E.03292
G1 X105.213 Y89.371 E.01607
G1 X105.205 Y88.819 E.01731
G1 X105.246 Y88.529 E.00918
